;FLAVOR:Marlin
;TIME:1036
;Filament used: 0.950001m
;Layer height: 0.21875
;MINX:44.994
;MINY:49.548
;MINZ:0.263
;MAXX:75.295
;MAXY:67.277
;MAXZ:31.58
;Generated with Cura_SteamEngine main
M140 S45
M105
M190 S45
M104 S215
M105
M109 S215
M82 ;absolute extrusion mode
G21;(metric values)
G90;(absolute positioning)
M82;(set extruder to absolute mode)
M107;(start with the fan off)
G28;(Home the printer)
G92 E0;(Reset the extruder to 0)
G0 Z5 E5 F500;(Move up and prime the nozzle)
G0 X-1 Z0;(Move outside the printable area)
G1 Y60 E8 F500;(Draw a priming/wiping line to the rear)
G1 X-1;(Move a little closer to the print area)
G1 Y10 E16 F500;(draw more priming/wiping)
G1 E15 F250;(Small retract)
G92 E0;(Zero the extruder)
G92 E0
G92 E0
G1 F2400 E-2.5
;LAYER_COUNT:144
;LAYER:0
M107
G0 F2880 X47.427 Y57.471 Z0.263
;TYPE:SKIRT
G1 F2400 E0
G1 F1800 X47.531 Y57.436 E0.00528
G1 X47.581 Y57.472 E0.00824
G1 X47.581 Y57.584 E0.01363
G1 X47.531 Y57.62 E0.0166
G1 X47.427 Y57.585 E0.02188
G1 X47.427 Y57.504 E0.02577
G0 F1620 X47.427 Y57.471
G0 F2880 X46.947 Y57.528
G1 F1800 X47.053 Y57.199 E0.0424
G1 X47.332 Y56.996 E0.059
G1 X47.674 Y56.996 E0.07546
G1 X47.954 Y57.2 E0.09212
G1 X48.061 Y57.528 E0.10872
G1 X47.954 Y57.856 E0.12532
G1 X47.674 Y58.06 E0.14199
G1 X47.332 Y58.06 E0.15844
G1 X47.053 Y57.857 E0.17504
G1 X47.017 Y57.746 E0.18066
G0 F1620 X46.947 Y57.528
G0 F2880 X46.484 Y57.528
G1 F1800 X46.678 Y56.929 E0.21095
G1 X47.189 Y56.556 E0.24139
G1 X47.817 Y56.556 E0.2716
G1 X48.33 Y56.93 E0.30214
G1 X48.525 Y57.528 E0.3324
G1 X48.33 Y58.126 E0.36266
G1 X47.817 Y58.5 E0.39321
G1 X47.189 Y58.5 E0.42342
G1 X46.678 Y58.127 E0.45386
G1 X46.613 Y57.927 E0.46398
G0 F1620 X46.484 Y57.528
G0 F2880 X46.021 Y57.528
G1 F1800 X46.303 Y56.657 E0.50802
G1 X47.045 Y56.116 E0.5522
G1 X47.961 Y56.116 E0.59627
G1 X48.703 Y56.657 E0.64045
G1 X48.987 Y57.528 E0.68453
G1 X48.703 Y58.399 E0.7286
G1 X47.961 Y58.94 E0.77278
G1 X47.045 Y58.94 E0.81685
G1 X46.303 Y58.399 E0.86103
G1 X46.191 Y58.053 E0.87853
G0 F1620 X46.021 Y57.528
G0 F2880 X45.559 Y57.528
G1 F1800 X45.929 Y56.385 E0.93633
G1 X46.902 Y55.676 E0.99425
G1 X48.104 Y55.676 E1.05208
G1 X49.077 Y56.385 E1.11
G1 X49.45 Y57.528 E1.16784
G1 X49.077 Y58.671 E1.22569
G1 X48.104 Y59.38 E1.28361
G1 X46.902 Y59.38 E1.34144
G1 X45.929 Y58.671 E1.39936
G1 X45.729 Y58.053 E1.43061
G0 F1620 X45.559 Y57.528
G0 F2880 X45.096 Y57.528
G1 F1800 X45.554 Y56.115 E1.50207
G1 X46.759 Y55.236 E1.57383
G1 X48.247 Y55.236 E1.64542
G1 X49.452 Y56.115 E1.71718
G1 X49.913 Y57.528 E1.78869
G1 X49.452 Y58.941 E1.86019
G1 X48.247 Y59.82 E1.93195
G1 X46.759 Y59.82 E2.00354
G1 X45.554 Y58.941 E2.0753
G1 X45.266 Y58.053 E2.12021
G0 F1620 X45.096 Y57.528
G1 F2400 E-0.37979
G0 F2880 X55.749 Y52.645
G0 X57.212 Y52.247
G0 X63.796 Y51.748
G1 F2400 E2.12021
G1 F1800 X64.225 Y50.425 E2.18713
G1 X65.354 Y49.602 E2.25434
G1 X66.883 Y49.602 E2.32791
G1 X70.728 Y52.231 E2.552
G1 X72.154 Y53.154 E2.63372
G1 X73.285 Y54.89 E2.7334
G1 X74.117 Y55.495 E2.7829
G1 X75.22 Y59.338 E2.97525
G1 X74.578 Y61.314 E3.07521
G1 X73.401 Y62.172 E3.14528
G1 X71.949 Y62.172 E3.21514
G1 X70.772 Y61.314 E3.28522
G1 X70.321 Y59.923 E3.35557
G1 X70.453 Y59.296 E3.38639
G1 X70.434 Y59.151 E3.39343
G1 X69.068 Y56.481 E3.53772
G1 X65.501 Y53.932 E3.74865
G1 X64.224 Y53.068 E3.82283
G1 X63.966 Y52.273 E3.86304
G0 F1620 X63.796 Y51.748
G0 F2880 X64.259 Y51.748
G1 F1800 X64.599 Y50.696 E3.91623
G1 X65.498 Y50.042 E3.96971
G1 X66.747 Y50.042 E4.0298
G1 X70.489 Y52.6 E4.24788
G1 X71.835 Y53.471 E4.32501
G1 X72.894 Y55.096 E4.41833
G1 X73.059 Y55.27 E4.42986
G1 X73.736 Y55.763 E4.47016
G1 X74.76 Y59.329 E4.64865
G1 X74.203 Y61.044 E4.7354
G1 X73.258 Y61.732 E4.79164
G1 X72.092 Y61.732 E4.84774
G1 X71.147 Y61.044 E4.90398
G1 X70.776 Y59.899 E4.96188
G1 X70.884 Y59.387 E4.98706
G1 X70.891 Y59.158 E4.99808
G1 X70.826 Y58.95 E5.00856
G1 X69.485 Y56.328 E5.15025
G1 X69.281 Y56.092 E5.16526
G1 X65.748 Y53.567 E5.37418
G1 X64.596 Y52.788 E5.44109
G1 X64.429 Y52.273 E5.46714
G0 F1620 X64.259 Y51.748
G0 F2880 X64.721 Y51.748
G1 F1800 X64.974 Y50.967 E5.50663
G1 X65.64 Y50.482 E5.54627
G1 X66.611 Y50.482 E5.59299
G1 X70.25 Y52.969 E5.80504
G1 X71.516 Y53.788 E5.87759
G1 X72.525 Y55.337 E5.96653
G1 X72.8 Y55.625 E5.98568
G1 X73.354 Y56.028 E6.01864
G1 X74.3 Y59.322 E6.18353
G1 X73.829 Y60.772 E6.25687
G1 X73.115 Y61.292 E6.29937
G1 X72.235 Y61.292 E6.34171
G1 X71.521 Y60.772 E6.3842
G1 X71.23 Y59.875 E6.42957
G1 X71.336 Y59.182 E6.4633
G1 X71.271 Y58.855 E6.47934
G1 X69.876 Y56.128 E6.62671
G1 X69.666 Y55.826 E6.64441
G1 X65.994 Y53.203 E6.86151
G1 X64.967 Y52.509 E6.92114
G1 X64.89 Y52.273 E6.93309
G0 F1620 X64.721 Y51.748
G0 F2880 X65.184 Y51.748
G1 F1800 X65.349 Y51.239 E6.95883
G1 X65.784 Y50.922 E6.98473
G1 X66.476 Y50.922 E7.01802
G1 X70.011 Y53.339 E7.22404
G1 X71.2 Y54.109 E7.2922
G1 X72.157 Y55.577 E7.3765
G1 X72.415 Y55.889 E7.39598
G1 X72.973 Y56.295 E7.42918
G1 X73.84 Y59.313 E7.58025
G1 X73.454 Y60.5 E7.6403
G1 X72.971 Y60.852 E7.66906
G1 X72.379 Y60.852 E7.69754
G1 X71.896 Y60.5 E7.72629
G1 X71.686 Y59.851 E7.75911
G1 X71.778 Y59.219 E7.78984
G1 X71.731 Y58.872 E7.80668
G1 X71.609 Y58.55 E7.82325
G1 X70.268 Y55.928 E7.96494
G1 X70.074 Y55.636 E7.9818
G1 X69.792 Y55.376 E8.00026
G1 X66.241 Y52.838 E8.21025
G1 X65.378 Y52.255 E8.26036
G0 F1620 X65.34 Y52.229
G0 X65.184 Y51.748
G0 F2880 X65.647 Y51.748
G1 F1800 X65.724 Y51.511 E8.27234
G1 X65.928 Y51.362 E8.2845
G1 X66.339 Y51.362 E8.30427
G1 X69.772 Y53.708 E8.50432
G1 X70.882 Y54.426 E8.56792
G1 X71.788 Y55.817 E8.64779
G1 X72.038 Y56.127 E8.66695
G1 X72.592 Y56.562 E8.70083
G1 X73.38 Y59.307 E8.83823
G1 X73.08 Y60.229 E8.88488
G1 X72.829 Y60.412 E8.89982
G1 X72.521 Y60.412 E8.91464
G1 X72.271 Y60.23 E8.92952
G1 X72.141 Y59.827 E8.94989
G1 X72.218 Y59.264 E8.97723
G1 X72.181 Y58.868 E8.99636
G1 X72.001 Y58.349 E9.02279
G1 X70.66 Y55.727 E9.16448
G1 X70.444 Y55.393 E9.18362
G1 X70.048 Y55.018 E9.20986
G1 X66.487 Y52.474 E9.42041
G1 X65.993 Y52.14 E9.4491
G0 F1620 X65.712 Y51.95
G0 X65.647 Y51.748
G1 F2400 E6.9491
G0 F2880 X68.565 Y53.417
G1 F2400 E9.4491
G1 F1800 X69.533 Y54.078 E9.50549
G1 X70.566 Y54.747 E9.5647
G1 X71.42 Y56.057 E9.63993
G1 X71.692 Y56.402 E9.66107
G1 X72.211 Y56.83 E9.69344
G1 X72.919 Y59.298 E9.81696
G1 X72.705 Y59.957 E9.8503
G1 X72.665 Y59.972 E9.85235
G1 X72.595 Y59.803 E9.86115
G1 X72.657 Y59.313 E9.88491
G1 X72.629 Y58.874 E9.90608
G1 X72.497 Y58.351 E9.93203
G1 X71.052 Y55.527 E10.08465
G1 X70.817 Y55.156 E10.10578
G1 X70.467 Y54.776 E10.13063
G1 X69.014 Y53.737 E10.21657
G0 F1620 X68.565 Y53.417
G1 F2400 E7.71657
;MESH:plug-sensor.stl
G0 F2880 X66.598 Y56.132
G0 X65.951 Y57.026
G0 X60.61 Y54.467
G0 X59.51 Y54.173
G0 X58.384 Y54.092
G0 X57.255 Y54.231
G0 X56.163 Y54.587
G0 X55.164 Y55.148
G0 X54.305 Y55.875
G0 X53.594 Y56.76
G0 X53.051 Y57.802
G0 X52.797 Y58.659
G0 X52.444 Y60.291
;TYPE:WALL-INNER
G1 F2400 E10.21657
G1 F1800 X52.502 Y60.887 E10.24538
G1 X52.615 Y61.458 E10.27338
G1 X52.779 Y62.006 E10.3009
G1 X53.005 Y62.566 E10.32996
G1 X53.283 Y63.096 E10.35875
G1 X53.6 Y63.579 E10.38655
G1 X53.974 Y64.044 E10.41525
G1 X54.387 Y64.469 E10.44377
G1 X54.826 Y64.839 E10.47139
G1 X55.321 Y65.181 E10.50033
G1 X55.834 Y65.466 E10.52857
G1 X56.377 Y65.704 E10.55709
G1 X56.942 Y65.887 E10.58566
G1 X57.507 Y66.011 E10.61349
G1 X58.095 Y66.081 E10.64198
G1 X58.685 Y66.096 E10.67038
G1 X59.263 Y66.053 E10.69826
G1 X59.859 Y65.952 E10.72734
G1 X60.399 Y65.806 E10.75426
G1 X60.972 Y65.589 E10.78374
G1 X61.5 Y65.328 E10.81207
G1 X62.014 Y65.009 E10.84118
G1 X66.775 Y61.56 E11.12402
G1 X67.054 Y61.294 E11.14257
G1 X67.261 Y61.009 E11.15951
G1 X67.414 Y60.692 E11.17645
G1 X67.522 Y60.177 E11.20176
G1 X67.507 Y59.65 E11.22713
G1 X67.411 Y59.303 E11.24445
G1 X67.261 Y58.991 E11.2611
G1 X67.054 Y58.706 E11.27805
G1 X66.775 Y58.44 E11.2966
G1 X62.014 Y54.991 E11.57944
G1 X61.499 Y54.674 E11.60854
G1 X60.971 Y54.411 E11.63691
G1 X60.399 Y54.193 E11.66636
G1 X59.861 Y54.048 E11.69317
G1 X59.263 Y53.947 E11.72235
G1 X58.685 Y53.904 E11.75023
G1 X58.095 Y53.919 E11.77863
G1 X57.509 Y53.989 E11.80702
G1 X56.942 Y54.115 E11.83497
G1 X56.375 Y54.297 E11.86362
G1 X55.833 Y54.534 E11.89208
G1 X55.321 Y54.819 E11.92027
G1 X54.826 Y55.161 E11.94921
G1 X54.387 Y55.531 E11.97684
G1 X53.974 Y55.956 E12.00535
G1 X53.6 Y56.421 E12.03406
G1 X53.283 Y56.904 E12.06185
G1 X53.005 Y57.434 E12.09065
G1 X52.779 Y57.994 E12.1197
G1 X52.615 Y58.542 E12.14722
G1 X52.502 Y59.113 E12.17522
G1 X52.444 Y59.711 E12.20413
G1 X52.444 Y59.739 E12.20548
G0 F1620 X52.444 Y60.291
G0 F2880 X52.004 Y60.312
G1 F1800 X52.066 Y60.951 E12.23636
G1 X52.187 Y61.564 E12.26642
G1 X52.363 Y62.152 E12.29595
G1 X52.605 Y62.751 E12.32703
G1 X52.903 Y63.319 E12.35789
G1 X53.244 Y63.839 E12.38781
G1 X53.644 Y64.336 E12.4185
G1 X54.087 Y64.791 E12.44906
G1 X54.558 Y65.189 E12.47872
G1 X55.088 Y65.555 E12.50971
G1 X55.638 Y65.86 E12.53997
G1 X56.22 Y66.116 E12.57056
G1 X56.827 Y66.313 E12.60126
G1 X57.433 Y66.445 E12.6311
G1 X58.063 Y66.521 E12.66163
G1 X58.696 Y66.537 E12.69209
G1 X59.316 Y66.491 E12.722
G1 X59.954 Y66.382 E12.75314
G1 X60.535 Y66.225 E12.7821
G1 X61.148 Y65.993 E12.81363
G1 X61.714 Y65.713 E12.84401
G1 X62.259 Y65.374 E12.87489
G1 X67.057 Y61.899 E13.15991
G1 X67.387 Y61.585 E13.18183
G1 X67.64 Y61.236 E13.20256
G1 X67.828 Y60.846 E13.22339
G1 X67.941 Y60.43 E13.24413
G1 X67.96 Y60.218 E13.25437
G1 X67.981 Y59.999 E13.26496
G1 X67.941 Y59.571 E13.28564
G1 X67.825 Y59.147 E13.30679
G1 X67.641 Y58.764 E13.32723
G1 X67.387 Y58.415 E13.348
G1 X67.057 Y58.101 E13.36991
G1 X62.259 Y54.626 E13.65493
G1 X61.714 Y54.288 E13.68578
G1 X61.147 Y54.007 E13.71623
G1 X60.535 Y53.773 E13.74775
G1 X59.955 Y53.618 E13.77664
G1 X59.316 Y53.509 E13.80782
G1 X58.696 Y53.463 E13.83773
G1 X58.063 Y53.48 E13.8682
G1 X57.435 Y53.555 E13.89863
G1 X56.827 Y53.69 E13.92859
G1 X56.219 Y53.885 E13.95931
G1 X55.638 Y54.14 E13.98984
G1 X55.088 Y54.445 E14.02009
G1 X54.558 Y54.811 E14.05108
G1 X54.087 Y55.209 E14.08075
G1 X53.644 Y55.664 E14.1113
G1 X53.244 Y56.161 E14.14199
G1 X52.903 Y56.681 E14.17191
G1 X52.605 Y57.249 E14.20277
G1 X52.363 Y57.848 E14.23385
G1 X52.187 Y58.436 E14.26338
G1 X52.066 Y59.049 E14.29344
G1 X52.004 Y59.69 E14.32442
G1 X52.004 Y59.76 E14.32779
G0 F1620 X52.004 Y60.312
G0 F2880 X51.564 Y60.333
;TYPE:WALL-OUTER
G1 F1800 X51.63 Y61.015 E14.36076
G1 X51.759 Y61.67 E14.39288
G1 X51.947 Y62.298 E14.42441
G1 X52.205 Y62.936 E14.45752
G1 X52.523 Y63.543 E14.49049
G1 X52.888 Y64.098 E14.52245
G1 X53.314 Y64.628 E14.55516
G1 X53.787 Y65.113 E14.58776
G1 X54.29 Y65.539 E14.61947
G1 X54.856 Y65.929 E14.65254
G1 X55.442 Y66.255 E14.6848
G1 X56.064 Y66.528 E14.71748
G1 X56.712 Y66.738 E14.75025
G1 X57.36 Y66.879 E14.78216
G1 X58.031 Y66.96 E14.81468
G1 X58.706 Y66.977 E14.84716
G1 X59.37 Y66.928 E14.87919
G1 X60.048 Y66.812 E14.91229
G1 X60.671 Y66.644 E14.94333
G1 X61.324 Y66.397 E14.97692
G1 X61.928 Y66.098 E15.00934
G1 X62.505 Y65.74 E15.04201
G1 X67.339 Y62.238 E15.3292
G1 X67.719 Y61.876 E15.35445
G1 X68.02 Y61.462 E15.37907
G1 X68.242 Y61.001 E15.40369
G1 X68.376 Y60.509 E15.42822
G1 X68.398 Y60.258 E15.44034
G1 X68.423 Y59.999 E15.45286
G1 X68.376 Y59.491 E15.47741
G1 X68.239 Y58.992 E15.5023
G1 X68.02 Y58.538 E15.52655
G1 X67.719 Y58.124 E15.55118
G1 X67.339 Y57.762 E15.57643
G1 X62.505 Y54.26 E15.86361
G1 X61.928 Y53.902 E15.89628
G1 X61.323 Y53.603 E15.92875
G1 X60.671 Y53.354 E15.96233
G1 X60.049 Y53.188 E15.9933
G1 X59.37 Y53.072 E16.02644
G1 X58.706 Y53.023 E16.05847
G1 X58.031 Y53.04 E16.09096
G1 X57.361 Y53.121 E16.12343
G1 X56.712 Y53.265 E16.15541
G1 X56.063 Y53.473 E16.1882
G1 X55.442 Y53.745 E16.22081
G1 X54.856 Y54.071 E16.25308
G1 X54.29 Y54.461 E16.28615
G1 X53.787 Y54.887 E16.31786
G1 X53.314 Y55.372 E16.35045
G1 X52.888 Y55.902 E16.38317
G1 X52.523 Y56.457 E16.41512
G1 X52.205 Y57.064 E16.44809
G1 X51.947 Y57.702 E16.4812
G1 X51.759 Y58.33 E16.51274
G1 X51.63 Y58.985 E16.54486
G1 X51.564 Y59.669 E16.57792
G1 X51.564 Y59.781 E16.58331
G0 F1620 X51.564 Y60.333
G0 F2880 X51.583 Y60.532
G0 X52.28 Y60.466
G0 X52.862 Y60.271
;TYPE:SKIN
G1 F1800 X52.916 Y60.824 E16.61004
G1 X53.022 Y61.355 E16.63609
G1 X53.17 Y61.853 E16.66108
G1 X53.386 Y62.388 E16.68884
G1 X53.643 Y62.881 E16.71559
G1 X53.939 Y63.333 E16.74158
G1 X54.288 Y63.765 E16.7683
G1 X54.674 Y64.161 E16.79491
G1 X55.081 Y64.506 E16.82058
G1 X55.54 Y64.824 E16.84744
G1 X56.019 Y65.09 E16.8738
G1 X56.526 Y65.314 E16.90047
G1 X57.065 Y65.488 E16.92772
G1 X57.576 Y65.597 E16.95286
G1 X58.125 Y65.664 E16.97947
G1 X58.674 Y65.677 E17.00589
G1 X59.211 Y65.638 E17.03179
G1 X59.768 Y65.543 E17.05897
G1 X60.256 Y65.411 E17.0833
G1 X60.804 Y65.204 E17.11148
G1 X61.297 Y64.96 E17.13794
G1 X61.779 Y64.661 E17.16523
G1 X66.506 Y61.237 E17.44605
G1 X66.739 Y61.016 E17.4615
G1 X67.021 Y60.542 E17.48803
G1 X67.105 Y60.137 E17.50793
G1 X67.093 Y59.728 E17.52762
G1 X67.017 Y59.448 E17.54157
G1 X66.739 Y58.984 E17.5676
G1 X66.505 Y58.762 E17.58312
G1 X61.78 Y55.34 E17.8638
G1 X61.296 Y55.042 E17.89114
G1 X60.802 Y54.795 E17.91771
G1 X60.256 Y54.588 E17.94581
G1 X59.77 Y54.458 E17.97001
G1 X59.211 Y54.362 E17.9973
G1 X58.676 Y54.323 E18.0231
G1 X58.125 Y54.337 E18.04962
G1 X57.58 Y54.402 E18.07603
G1 X57.051 Y54.52 E18.1021
G1 X56.523 Y54.688 E18.12876
G1 X56.019 Y54.91 E18.15526
G1 X55.54 Y55.175 E18.18159
G1 X55.083 Y55.494 E18.20841
G1 X54.674 Y55.839 E18.23415
G1 X54.288 Y56.235 E18.26076
G1 X53.939 Y56.668 E18.28751
G1 X53.643 Y57.118 E18.31343
G1 X53.386 Y57.611 E18.34017
G1 X53.172 Y58.147 E18.36794
G1 X53.023 Y58.645 E18.39295
G1 X52.916 Y59.176 E18.41901
G1 X52.863 Y59.72 E18.44531
G0 F1620 X52.862 Y59.733
G0 X52.862 Y60.271
G0 F2880 X52.564 Y60.271
G0 X52.949 Y61.946
G0 X53.439 Y63.004
G0 X54.11 Y63.924
G0 X54.778 Y64.547
G0 X56.022 Y65.416
G0 X56.23 Y64.942
G1 F1800 X53.588 Y62.3 E18.62506
G1 X53.511 Y62.223
G0 F2880 X53.241 Y61.33
G1 F1800 X57.202 Y65.291 E18.89457
G0 F2880 X57.953 Y65.42
G1 F1800 X53.112 Y60.579 E19.22394
G0 F2880 X53.081 Y59.926
G1 F1800 X58.609 Y65.454 E19.60006
G0 F2880 X59.193 Y65.415
G1 F1800 X53.12 Y59.343 E20.01323
G0 F2880 X53.213 Y58.813
G1 F1800 X59.725 Y65.326 E20.45633
G0 F2880 X60.212 Y65.19
G1 F1800 X53.339 Y58.317 E20.92396
G0 F2880 X53.517 Y57.873
G1 F1800 X60.664 Y65.02 E21.41024
G0 F2880 X61.084 Y64.818
G1 F1800 X53.716 Y57.45 E21.91155
G0 F2880 X53.945 Y57.057
G1 F1800 X61.477 Y64.588 E22.42398
G0 F2880 X61.848 Y64.337
G1 F1800 X54.201 Y56.69 E22.94428
G0 F2880 X54.482 Y56.349
G1 F1800 X62.209 Y64.075 E23.46998
G0 F2880 X62.57 Y63.814
G1 F1800 X54.789 Y56.033 E23.99939
G0 F2880 X55.124 Y55.746
G1 F1800 X62.931 Y63.553 E24.53057
G0 F2880 X63.292 Y63.292
G1 F1800 X55.483 Y55.483 E25.06189
G0 F2880 X55.867 Y55.245
G1 F1800 X63.653 Y63.03 E25.5916
G0 F2880 X64.013 Y62.769
G1 F1800 X56.28 Y55.035 E26.11778
G0 F2880 X56.721 Y54.855
G1 F1800 X64.375 Y62.508 E26.63852
G0 F2880 X64.735 Y62.246
G1 F1800 X57.201 Y54.712 E27.15112
G0 F2880 X57.718 Y54.607
G1 F1800 X65.096 Y61.984 E27.65308
G0 F2880 X65.457 Y61.724
G1 F1800 X58.286 Y54.553 E28.14099
G0 F2880 X58.918 Y54.562
G1 F1800 X65.818 Y61.462 E28.61046
G0 F2880 X66.178 Y61.2
M104 S210
G1 F1800 X59.637 Y54.659 E29.0555
G1 X59.56 Y54.582
G0 F2880 X59.636 Y54.134
G0 X60.712 Y54.442
G0 X60.527 Y54.927
G1 F1800 X66.519 Y60.919 E29.46319
G0 F2880 X66.766 Y60.543
G1 F1800 X61.975 Y55.753 E29.78913
G1 X61.898 Y55.676
G0 F2880 X62.193 Y55.27
G0 X64.539 Y56.97
G0 X64.234 Y57.389
G1 F1800 X66.888 Y60.043 E29.9697
G1 X66.965 Y60.12
G0 F2880 X67.365 Y60.159
G1 F2400 E27.4697
;MESH:NONMESH
G0 F90 X67.365 Y60.159 Z0.482
G0 F2880 X67.403 Y60.159
G0 X67.242 Y59.366
G0 X66.559 Y58.507
G0 X61.656 Y54.985
G0 X60.61 Y54.467
G0 X59.51 Y54.173
G0 X58.384 Y54.092
G0 X57.255 Y54.231
G0 X56.163 Y54.587
G0 X55.164 Y55.148
G0 X52.155 Y57.765
G0 X51.098 Y57.448
G0 X45.457 Y56.122
;TIME_ELAPSED:52.107785
;LAYER:1
M140 S40
M106 S255
;TYPE:SUPPORT
G1 F2400 E29.9697
G1 F2025 X44.994 Y57.552 E30.02992
G1 X45.457 Y58.981 E30.0901
G1 X46.675 Y59.868 E30.15046
G1 X48.181 Y59.868 E30.2108
G1 X49.399 Y58.981 E30.27116
