;FLAVOR:Marlin
;TIME:1142
;Filament used: 1.02817m
;Layer height: 0.21875
;MINX:44.999
;MINY:46.5
;MINZ:0.263
;MAXX:75.372
;MAXY:70.333
;MAXZ:31.58
;Generated with Cura_SteamEngine main
M140 S45
M105
M190 S45
M104 S215
M105
M109 S215
M82 ;absolute extrusion mode
G21;(metric values)
G90;(absolute positioning)
M82;(set extruder to absolute mode)
M107;(start with the fan off)
G28;(Home the printer)
G92 E0;(Reset the extruder to 0)
G0 Z5 E5 F500;(Move up and prime the nozzle)
G0 X-1 Z0;(Move outside the printable area)
G1 Y60 E8 F500;(Draw a priming/wiping line to the rear)
G1 X-1;(Move a little closer to the print area)
G1 Y10 E16 F500;(draw more priming/wiping)
G1 E15 F250;(Small retract)
G92 E0;(Zero the extruder)
G92 E0
G92 E0
G1 F2400 E-2.5
;LAYER_COUNT:144
;LAYER:0
M107
G0 F2880 X47.432 Y54.388 Z0.263
;TYPE:SKIRT
G1 F2400 E0
G1 F1800 X47.536 Y54.353 E0.00528
G1 X47.586 Y54.389 E0.00824
G1 X47.586 Y54.501 E0.01363
G1 X47.536 Y54.537 E0.0166
G1 X47.432 Y54.502 E0.02188
G1 X47.432 Y54.421 E0.02577
G0 F1620 X47.432 Y54.388
G0 F2880 X46.952 Y54.445
G1 F1800 X47.058 Y54.116 E0.0424
G1 X47.337 Y53.913 E0.059
G1 X47.679 Y53.913 E0.07546
G1 X47.959 Y54.117 E0.09212
G1 X48.066 Y54.445 E0.10872
G1 X47.959 Y54.773 E0.12532
G1 X47.679 Y54.977 E0.14199
G1 X47.337 Y54.977 E0.15844
G1 X47.058 Y54.774 E0.17504
G1 X47.022 Y54.663 E0.18066
G0 F1620 X46.952 Y54.445
G0 F2880 X46.489 Y54.445
G1 F1800 X46.683 Y53.846 E0.21095
G1 X47.194 Y53.473 E0.24139
G1 X47.822 Y53.473 E0.2716
G1 X48.335 Y53.847 E0.30214
G1 X48.53 Y54.445 E0.3324
G1 X48.335 Y55.043 E0.36266
G1 X47.822 Y55.417 E0.39321
G1 X47.194 Y55.417 E0.42342
G1 X46.683 Y55.044 E0.45386
G1 X46.618 Y54.844 E0.46398
G0 F1620 X46.489 Y54.445
G0 F2880 X46.026 Y54.445
G1 F1800 X46.308 Y53.574 E0.50802
G1 X47.05 Y53.033 E0.5522
G1 X47.966 Y53.033 E0.59627
G1 X48.708 Y53.574 E0.64045
G1 X48.992 Y54.445 E0.68453
G1 X48.708 Y55.316 E0.7286
G1 X47.966 Y55.857 E0.77278
G1 X47.05 Y55.857 E0.81685
G1 X46.308 Y55.316 E0.86103
G1 X46.196 Y54.97 E0.87853
G0 F1620 X46.026 Y54.445
G0 F2880 X45.564 Y54.445
G1 F1800 X45.934 Y53.302 E0.93633
G1 X46.907 Y52.593 E0.99425
G1 X48.109 Y52.593 E1.05208
G1 X49.082 Y53.302 E1.11
G1 X49.455 Y54.445 E1.16784
G1 X49.082 Y55.588 E1.22569
G1 X48.109 Y56.297 E1.28361
G1 X46.907 Y56.297 E1.34144
G1 X45.934 Y55.588 E1.39936
G1 X45.734 Y54.97 E1.43061
G0 F1620 X45.564 Y54.445
G0 F2880 X45.101 Y54.445
G1 F1800 X45.559 Y53.032 E1.50207
G1 X46.764 Y52.153 E1.57383
G1 X48.252 Y52.153 E1.64542
G1 X49.457 Y53.032 E1.71718
G1 X49.918 Y54.445 E1.78869
G1 X49.457 Y55.858 E1.86019
G1 X48.252 Y56.737 E1.93195
G1 X46.764 Y56.737 E2.00354
G1 X45.559 Y55.858 E2.0753
G1 X45.271 Y54.97 E2.12021
G0 F1620 X45.101 Y54.445
G1 F2400 E-0.37979
G0 F2880 X55.749 Y49.588
G0 X57.212 Y49.189
G0 X63.809 Y48.698
G1 F2400 E2.12021
G1 F1800 X64.238 Y47.375 E2.18713
G1 X65.367 Y46.552 E2.25434
G1 X66.892 Y46.552 E2.32771
G1 X70.936 Y49.451 E2.5671
G1 X73.165 Y51.155 E2.70209
G1 X73.946 Y52.165 E2.76351
G1 X75.285 Y56.15 E2.96577
G1 X74.418 Y58.922 E3.1055
G1 X73.272 Y59.757 E3.17372
G1 X71.854 Y59.757 E3.24194
G1 X70.706 Y58.921 E3.31026
G1 X70.264 Y57.557 E3.37925
G1 X70.455 Y56.287 E3.44103
G1 X69.753 Y54.298 E3.54251
G1 X69.687 Y54.202 E3.54812
G1 X67.391 Y52.275 E3.69233
G1 X64.205 Y49.921 E3.88291
G1 X63.979 Y49.223 E3.91821
G0 F1620 X63.809 Y48.698
G0 F2880 X64.272 Y48.698
G1 F1800 X64.612 Y47.646 E3.9714
G1 X65.511 Y46.992 E4.02488
G1 X66.751 Y46.992 E4.08454
G1 X70.685 Y49.812 E4.31741
G1 X72.851 Y51.468 E4.44859
G1 X73.552 Y52.375 E4.50374
G1 X74.823 Y56.155 E4.6956
G1 X74.042 Y58.652 E4.82147
G1 X73.128 Y59.317 E4.87585
G1 X71.998 Y59.317 E4.93022
G1 X71.081 Y58.65 E4.98477
G1 X70.715 Y57.519 E5.04196
G1 X70.882 Y56.404 E5.09621
G1 X70.851 Y56.086 E5.11158
G1 X70.168 Y54.151 E5.2103
G1 X70.04 Y53.924 E5.22284
G1 X67.652 Y51.921 E5.37279
G1 X64.581 Y49.652 E5.55649
G1 X64.442 Y49.223 E5.57819
G0 F1620 X64.272 Y48.698
G0 F2880 X64.734 Y48.697
G1 F1800 X64.987 Y47.917 E5.61764
G1 X65.653 Y47.432 E5.65728
G1 X66.609 Y47.432 E5.70327
G1 X70.416 Y50.16 E5.9286
G1 X72.539 Y51.784 E6.05719
G1 X73.158 Y52.585 E6.1059
G1 X74.36 Y56.16 E6.28735
G1 X73.665 Y58.382 E6.39936
G1 X72.986 Y58.877 E6.43979
G1 X72.14 Y58.877 E6.48049
G1 X71.456 Y58.379 E6.5212
G1 X71.165 Y57.48 E6.56666
G1 X71.317 Y56.469 E6.61585
G1 X71.322 Y56.099 E6.63365
G1 X70.583 Y54.005 E6.74048
G1 X70.448 Y53.742 E6.7547
G1 X70.253 Y53.528 E6.76863
G1 X67.914 Y51.567 E6.91548
G1 X64.956 Y49.382 E7.09241
G1 X64.904 Y49.222 E7.1005
G0 F1620 X64.734 Y48.697
G0 F2880 X65.197 Y48.699
G1 F1800 X65.362 Y48.189 E7.12629
G1 X65.797 Y47.872 E7.15219
G1 X66.468 Y47.872 E7.18447
G1 X70.173 Y50.528 E7.40379
G1 X72.225 Y52.097 E7.52807
G1 X72.765 Y52.795 E7.57052
G1 X73.898 Y56.164 E7.74153
G1 X73.289 Y58.112 E7.83972
G1 X72.842 Y58.437 E7.86631
G1 X72.284 Y58.437 E7.89316
G1 X71.83 Y58.107 E7.92016
G1 X71.616 Y57.445 E7.95363
G1 X71.752 Y56.534 E7.99795
G1 X71.764 Y56.184 E8.01479
G1 X71.681 Y55.793 E8.03403
G1 X70.998 Y53.858 E8.13275
G1 X70.845 Y53.543 E8.1496
G1 X70.536 Y53.191 E8.17213
G1 X68.175 Y51.213 E8.32032
G1 X65.425 Y49.182 E8.48479
G0 F1620 X65.33 Y49.112
G0 X65.197 Y48.699
G0 F2880 X65.66 Y48.698
G1 F1800 X65.737 Y48.461 E8.49678
G1 X65.941 Y48.312 E8.50893
G1 X66.327 Y48.312 E8.5275
G1 X69.88 Y50.859 E8.73783
G1 X71.915 Y52.415 E8.86107
G1 X72.372 Y53.006 E8.89702
G1 X73.435 Y56.169 E9.05755
G1 X72.912 Y57.842 E9.14188
G1 X72.699 Y57.997 E9.15456
G1 X72.427 Y57.997 E9.16764
G1 X72.205 Y57.835 E9.18087
G1 X72.066 Y57.406 E9.20256
G1 X72.187 Y56.599 E9.24182
G1 X72.206 Y56.202 E9.26094
G1 X72.096 Y55.647 E9.28816
G1 X71.413 Y53.712 E9.38689
G1 X71.244 Y53.352 E9.40602
G1 X70.96 Y52.972 E9.42884
G1 X68.533 Y50.935 E9.58129
G1 X66.028 Y49.08 E9.73125
G0 F1620 X65.706 Y48.842
G0 X65.66 Y48.698
G1 F2400 E7.23125
G0 F2880 X69.142 Y50.872
G1 F2400 E9.73125
G1 F1800 X69.642 Y51.23 E9.76084
G1 X71.601 Y52.728 E9.87948
G1 X71.978 Y53.216 E9.90915
G1 X72.973 Y56.174 E10.0593
G1 X72.558 Y57.5 E10.12614
G1 X72.516 Y57.371 E10.13267
G1 X72.622 Y56.665 E10.16702
G1 X72.648 Y56.226 E10.18818
G1 X72.582 Y55.702 E10.21358
G1 X71.828 Y53.566 E10.32256
G1 X71.645 Y53.166 E10.34373
G1 X71.392 Y52.806 E10.3649
G1 X71.102 Y52.517 E10.38459
G1 X69.564 Y51.226 E10.4812
G0 F1620 X69.142 Y50.872
G1 F2400 E7.9812
;MESH:plug-sensor-rod.stl
G0 F2880 X61.831 Y56.001
G0 X59.603 Y53.926
G0 X56.453 Y54.699
G0 X55.517 Y55.67
;TYPE:WALL-INNER
G1 F2400 E10.4812
G1 F1800 X55.577 Y55.407 E10.49418
G1 X55.776 Y54.961 E10.51767
G1 X55.931 Y54.773 E10.5294
G1 X56.373 Y54.471 E10.55515
G1 X58.809 Y53.679 E10.67839
G1 X59.077 Y53.654 E10.69134
G1 X59.564 Y53.702 E10.71488
G1 X59.793 Y53.794 E10.72676
G1 X60.192 Y54.085 E10.75051
G1 X61.67 Y56.12 E10.87152
G1 X61.842 Y56.48 E10.89071
G1 X61.935 Y56.965 E10.91447
G1 X61.919 Y57.167 E10.92422
G1 X61.804 Y57.519 E10.94204
G1 X61.67 Y57.765 E10.95551
G1 X60.225 Y59.755 E11.07383
G1 X59.759 Y60.096 E11.10161
G1 X59.506 Y60.201 E11.11479
G1 X59.211 Y60.24 E11.12911
G1 X58.83 Y60.211 E11.14749
G1 X57.818 Y59.883 E11.19867
G1 X56.328 Y59.399 E11.27404
G1 X55.91 Y59.076 E11.29946
G1 X55.667 Y58.751 E11.31898
G1 X55.517 Y58.233 E11.34493
G1 X55.517 Y56.222 E11.44168
G0 F1620 X55.517 Y55.67
G1 F2400 E8.94168
G0 F2880 X52.866 Y55.413
G0 X52.503 Y56.05
G1 F2400 E11.44168
G1 F1800 X52.445 Y56.654 E11.47087
G1 X52.445 Y57.234 E11.49878
G1 X52.502 Y57.829 E11.52753
G1 X52.615 Y58.4 E11.55554
G1 X52.779 Y58.949 E11.5831
G1 X53.007 Y59.512 E11.61233
G1 X53.28 Y60.035 E11.64071
G1 X53.601 Y60.523 E11.66881
G1 X53.968 Y60.982 E11.69709
G1 X54.388 Y61.41 E11.72594
G1 X54.835 Y61.79 E11.75416
G1 X55.316 Y62.12 E11.78223
G1 X55.834 Y62.409 E11.81076
G1 X56.377 Y62.645 E11.83925
G1 X56.942 Y62.829 E11.86784
G1 X57.507 Y62.952 E11.89566
G1 X58.095 Y63.024 E11.92416
G1 X58.685 Y63.039 E11.95255
G1 X59.264 Y62.997 E11.98048
G1 X59.858 Y62.895 E12.00948
G1 X60.398 Y62.748 E12.0364
G1 X60.972 Y62.53 E12.06594
G1 X61.501 Y62.27 E12.0943
G1 X62.014 Y61.952 E12.12334
G1 X66.775 Y58.502 E12.40621
G1 X67.054 Y58.236 E12.42476
G1 X67.261 Y57.951 E12.4417
G1 X67.414 Y57.634 E12.45864
G1 X67.523 Y57.118 E12.48401
G1 X67.507 Y56.593 E12.50928
G1 X67.411 Y56.246 E12.5266
G1 X67.263 Y55.936 E12.54313
G1 X67.051 Y55.646 E12.56041
G1 X66.775 Y55.383 E12.57875
G1 X62.014 Y51.934 E12.8616
G1 X61.499 Y51.615 E12.89074
G1 X60.97 Y51.352 E12.91916
G1 X60.4 Y51.135 E12.94851
G1 X59.86 Y50.991 E12.97539
G1 X59.263 Y50.889 E13.00453
G1 X58.685 Y50.846 E13.03242
G1 X58.095 Y50.861 E13.06081
G1 X57.51 Y50.931 E13.08916
G1 X56.943 Y51.058 E13.11711
G1 X56.374 Y51.24 E13.14585
G1 X55.833 Y51.477 E13.17427
G1 X55.321 Y51.761 E13.20244
G1 X54.826 Y52.104 E13.23141
G1 X54.388 Y52.474 E13.259
G1 X53.974 Y52.898 E13.28751
G1 X53.6 Y53.363 E13.31622
G1 X53.28 Y53.85 E13.34425
G1 X53.007 Y54.372 E13.37259
G1 X52.778 Y54.936 E13.40188
G1 X52.615 Y55.486 E13.42948
G1 X52.61 Y55.509 E13.43061
G0 F1620 X52.503 Y56.05
G0 F2880 X52.067 Y55.986
G1 F1800 X52.005 Y56.633 E13.46188
G1 X52.005 Y57.255 E13.49181
G1 X52.066 Y57.893 E13.52264
G1 X52.187 Y58.506 E13.5527
G1 X52.363 Y59.095 E13.58228
G1 X52.607 Y59.697 E13.61353
G1 X52.9 Y60.258 E13.64398
G1 X53.244 Y60.782 E13.67413
G1 X53.639 Y61.274 E13.70449
G1 X54.088 Y61.733 E13.73538
G1 X54.568 Y62.14 E13.76566
G1 X55.083 Y62.494 E13.79572
G1 X55.638 Y62.803 E13.82629
G1 X56.22 Y63.057 E13.85684
G1 X56.827 Y63.254 E13.88754
G1 X57.434 Y63.387 E13.91743
G1 X58.063 Y63.463 E13.94792
G1 X58.696 Y63.479 E13.97838
G1 X59.317 Y63.434 E14.00834
G1 X59.953 Y63.325 E14.03938
G1 X60.534 Y63.167 E14.06835
G1 X61.148 Y62.934 E14.09994
G1 X61.715 Y62.655 E14.13035
G1 X62.259 Y62.317 E14.16116
G1 X67.057 Y58.841 E14.44621
G1 X67.387 Y58.527 E14.46812
G1 X67.64 Y58.178 E14.48886
G1 X67.828 Y57.788 E14.50969
G1 X67.942 Y57.372 E14.53044
G1 X67.961 Y57.159 E14.54073
G1 X67.981 Y56.941 E14.55126
G1 X67.942 Y56.514 E14.57189
G1 X67.825 Y56.09 E14.59305
G1 X67.642 Y55.71 E14.61334
G1 X67.384 Y55.355 E14.63446
G1 X67.057 Y55.044 E14.65617
G1 X62.259 Y51.568 E14.94122
G1 X61.714 Y51.23 E14.97207
G1 X61.147 Y50.948 E15.00254
G1 X60.535 Y50.716 E15.03402
G1 X59.954 Y50.56 E15.06297
G1 X59.316 Y50.452 E15.0941
G1 X58.696 Y50.406 E15.12401
G1 X58.063 Y50.421 E15.15447
G1 X57.435 Y50.497 E15.1849
G1 X56.828 Y50.633 E15.21483
G1 X56.219 Y50.828 E15.2456
G1 X55.638 Y51.082 E15.2761
G1 X55.088 Y51.387 E15.30636
G1 X54.558 Y51.754 E15.33738
G1 X54.087 Y52.151 E15.36701
G1 X53.644 Y52.606 E15.39756
G1 X53.244 Y53.103 E15.42826
G1 X52.9 Y53.627 E15.45841
G1 X52.607 Y54.188 E15.48886
G1 X52.363 Y54.791 E15.52016
G1 X52.187 Y55.38 E15.54974
G1 X52.174 Y55.444 E15.55288
G0 F1620 X52.067 Y55.986
G1 F2400 E13.05288
G0 F2880 X52.323 Y56.026
G0 X52.866 Y55.413
G0 X55.344 Y55.496
G1 F2400 E15.55288
G0 F2880 X56.095 Y55.29
G1 F1800 X56.237 Y55.089 E15.56472
G1 X56.55 Y54.877 E15.58291
G1 X58.931 Y54.107 E15.7033
G1 X59.45 Y54.128 E15.72829
G1 X59.587 Y54.183 E15.73539
G1 X59.874 Y54.397 E15.75261
G1 X61.314 Y56.379 E15.87048
G1 X61.417 Y56.595 E15.88199
G1 X61.495 Y56.969 E15.90037
G1 X61.486 Y57.09 E15.90621
G1 X61.314 Y57.506 E15.92787
G1 X59.895 Y59.46 E16.04405
G1 X59.451 Y59.756 E16.06972
G1 X59.311 Y59.792 E16.07668
G1 X58.926 Y59.779 E16.09521
G1 X57.954 Y59.464 E16.14437
G1 X56.558 Y59.012 E16.21496
G1 X56.14 Y58.68 E16.24065
G1 X56.062 Y58.557 E16.24765
G1 X55.957 Y58.188 E16.26611
G1 X55.957 Y55.82 E16.38004
G0 F1620 X55.957 Y55.697
G0 X56.095 Y55.29
G0 F2880 X56.543 Y55.406
;TYPE:WALL-OUTER
G1 F1800 X56.753 Y55.273 E16.392
G1 X59.026 Y54.537 E16.50694
G1 X59.336 Y54.554 E16.52188
G1 X59.575 Y54.733 E16.53625
G1 X60.958 Y56.637 E16.64946
G1 X61.052 Y57.014 E16.66816
G1 X60.958 Y57.248 E16.68029
G1 X59.576 Y59.151 E16.79344
G1 X59.325 Y59.33 E16.80827
G1 X59.026 Y59.347 E16.82268
G1 X58.09 Y59.046 E16.86998
G1 X56.723 Y58.602 E16.93913
G1 X56.478 Y58.398 E16.95447
G1 X56.399 Y58.15 E16.96699
G1 X56.399 Y55.928 E17.07389
G0 F1620 X56.399 Y55.736
G0 X56.543 Y55.406
G0 F2880 X56.712 Y55.299
G1 F2400 E14.57389
G0 F2880 X56.331 Y54.705
G0 X55.344 Y55.496
G0 X52.866 Y55.413
G0 X52.323 Y56.026
G1 F2400 E17.07389
G0 F2880 X51.631 Y55.922
G1 F1800 X51.565 Y56.611 E17.10719
G1 X51.565 Y57.276 E17.13919
G1 X51.63 Y57.957 E17.1721
G1 X51.759 Y58.612 E17.20422
G1 X51.947 Y59.241 E17.2358
G1 X52.207 Y59.882 E17.26908
G1 X52.52 Y60.482 E17.30164
G1 X52.888 Y61.041 E17.33384
G1 X53.309 Y61.566 E17.36622
G1 X53.788 Y62.055 E17.39915
G1 X54.3 Y62.49 E17.43147
G1 X54.851 Y62.868 E17.46362
G1 X55.442 Y63.198 E17.49618
G1 X56.064 Y63.469 E17.52883
G1 X56.712 Y63.68 E17.56161
G1 X57.36 Y63.821 E17.59352
G1 X58.031 Y63.903 E17.62604
G1 X58.706 Y63.919 E17.65852
G1 X59.37 Y63.871 E17.69055
G1 X60.048 Y63.755 E17.72365
G1 X60.67 Y63.586 E17.75466
G1 X61.324 Y63.338 E17.78831
G1 X61.929 Y63.04 E17.82075
G1 X62.505 Y62.683 E17.85336
G1 X67.339 Y59.18 E18.14057
G1 X67.719 Y58.818 E18.16582
G1 X68.02 Y58.404 E18.19044
G1 X68.242 Y57.943 E18.21506
G1 X68.376 Y57.451 E18.23959
G1 X68.399 Y57.199 E18.25177
G1 X68.423 Y56.941 E18.26423
G1 X68.376 Y56.434 E18.28873
G1 X68.239 Y55.935 E18.31363
G1 X68.021 Y55.483 E18.33777
G1 X67.716 Y55.064 E18.3627
G1 X67.339 Y54.705 E18.38775
G1 X62.505 Y51.202 E18.67496
G1 X61.928 Y50.845 E18.7076
G1 X61.323 Y50.544 E18.74011
G1 X60.671 Y50.296 E18.77368
G1 X60.048 Y50.13 E18.80469
G1 X59.37 Y50.014 E18.83779
G1 X58.706 Y49.965 E18.86982
G1 X58.031 Y49.982 E18.90231
G1 X57.361 Y50.063 E18.93477
G1 X56.712 Y50.208 E18.96677
G1 X56.063 Y50.416 E18.99956
G1 X55.442 Y50.687 E19.03215
G1 X54.856 Y51.013 E19.06442
G1 X54.29 Y51.404 E19.09751
G1 X53.787 Y51.829 E19.12919
G1 X53.314 Y52.314 E19.16179
G1 X52.888 Y52.844 E19.1945
G1 X52.52 Y53.403 E19.2267
G1 X52.207 Y54.003 E19.25926
G1 X51.947 Y54.645 E19.29258
G1 X51.759 Y55.274 E19.32417
G1 X51.738 Y55.381 E19.32941
G0 F1620 X51.631 Y55.922
G0 F2880 X51.612 Y56.121
G0 X52.307 Y56.189
G0 X52.917 Y56.113
;TYPE:SKIN
G1 F1800 X52.863 Y56.675 E19.35658
G1 X52.863 Y57.214 E19.38251
G1 X52.916 Y57.767 E19.40923
G1 X53.023 Y58.297 E19.43525
G1 X53.172 Y58.796 E19.4603
G1 X53.387 Y59.335 E19.48822
G1 X53.641 Y59.819 E19.51452
G1 X53.94 Y60.275 E19.54075
G1 X54.276 Y60.698 E19.56674
G1 X54.674 Y61.103 E19.59406
G1 X55.089 Y61.457 E19.6203
G1 X55.535 Y61.763 E19.64633
G1 X56.019 Y62.033 E19.67299
G1 X56.527 Y62.254 E19.69964
G1 X57.065 Y62.43 E19.72688
G1 X57.577 Y62.539 E19.75206
G1 X58.127 Y62.606 E19.77872
G1 X58.676 Y62.619 E19.80514
G1 X59.212 Y62.581 E19.83099
G1 X59.767 Y62.486 E19.85808
G1 X60.254 Y62.352 E19.88238
G1 X60.804 Y62.145 E19.91065
G1 X61.298 Y61.903 E19.93712
G1 X61.78 Y61.604 E19.96441
G1 X66.506 Y58.179 E20.24521
G1 X66.739 Y57.958 E20.26066
G1 X67.021 Y57.484 E20.2872
G1 X67.106 Y57.075 E20.30729
G1 X67.094 Y56.667 E20.32693
G1 X67.018 Y56.392 E20.34066
G1 X66.736 Y55.924 E20.36694
G1 X66.505 Y55.705 E20.38226
G1 X61.817 Y52.307 E20.66082
G1 X61.296 Y51.983 E20.69034
G1 X60.802 Y51.735 E20.71693
G1 X60.313 Y51.548 E20.74212
G1 X59.769 Y51.4 E20.76924
G1 X59.211 Y51.305 E20.79647
G1 X58.674 Y51.266 E20.82238
G1 X58.125 Y51.278 E20.8488
G1 X57.581 Y51.343 E20.87515
G1 X57.066 Y51.46 E20.90056
G1 X56.516 Y51.632 E20.92829
G1 X56.02 Y51.852 E20.95439
G1 X55.54 Y52.118 E20.98079
G1 X55.082 Y52.436 E21.00762
G1 X54.675 Y52.781 E21.03329
G1 X54.289 Y53.176 E21.05986
G1 X53.939 Y53.609 E21.08665
G1 X53.641 Y54.064 E21.11281
G1 X53.387 Y54.548 E21.13911
G1 X53.172 Y55.075 E21.16649
G1 X53.027 Y55.572 E21.1914
G0 F1620 X53.023 Y55.586
G0 X52.917 Y56.113
G1 F2400 E18.6914
G0 F2880 X52.623 Y56.067
G0 X55.324 Y55.614
G1 F2400 E21.1914
G0 F2880 X55.131 Y55.448
G1 F1800 X55.312 Y54.935 E21.21757
G1 X55.633 Y54.472 E21.24468
G1 X56.182 Y54.097 E21.27667
G1 X58.742 Y53.266 E21.40616
G1 X59.103 Y53.236 E21.42358
G1 X59.673 Y53.298 E21.45117
G1 X59.986 Y53.422 E21.46737
G1 X60.408 Y53.727 E21.49242
G1 X60.612 Y53.954 E21.5071
G1 X62.005 Y55.869 E21.62103
G1 X62.246 Y56.364 E21.64752
G1 X62.356 Y56.96 E21.67667
G1 X62.324 Y57.271 E21.69172
G1 X62.2 Y57.656 E21.71118
G1 X62.008 Y58.01 E21.73055
