;FLAVOR:Marlin
;TIME:982
;Filament used: 0.766515m
;Layer height: 0.21875
;MINX:44.228
;MINY:52.287
;MINZ:0.263
;MAXX:71.369
;MAXY:70.257
;MAXZ:31.799
;Generated with Cura_SteamEngine main
M140 S45
M105
M190 S45
M104 S215
M105
M109 S215
M82 ;absolute extrusion mode
G21;(metric values)
G90;(absolute positioning)
M82;(set extruder to absolute mode)
M107;(start with the fan off)
G28;(Home the printer)
G92 E0;(Reset the extruder to 0)
G0 Z5 E5 F500;(Move up and prime the nozzle)
G0 X-1 Z0;(Move outside the printable area)
G1 Y60 E8 F500;(Draw a priming/wiping line to the rear)
G1 X-1;(Move a little closer to the print area)
G1 Y10 E16 F500;(draw more priming/wiping)
G1 E15 F250;(Small retract)
G92 E0;(Zero the extruder)
G92 E0
G92 E0
G1 F2400 E-2.5
;LAYER_COUNT:145
;LAYER:0
M107
G0 F2880 X68.876 Y54.62 Z0.263
;TYPE:SKIRT
G1 F2400 E0
G1 F1800 X68.96 Y54.591 E0.00428
G1 X69.001 Y54.621 E0.00672
G1 X69.001 Y54.707 E0.01086
G1 X68.96 Y54.737 E0.0133
G1 X68.876 Y54.708 E0.01758
G1 X68.876 Y54.646 E0.02056
G0 F1620 X68.876 Y54.62
G0 F2880 X68.4 Y54.664
G1 F1800 X68.503 Y54.347 E0.0366
G1 X68.772 Y54.151 E0.05261
G1 X69.104 Y54.151 E0.06858
G1 X69.375 Y54.348 E0.0847
G1 X69.477 Y54.664 E0.10068
G1 X69.375 Y54.98 E0.11665
G1 X69.104 Y55.177 E0.13277
G1 X68.772 Y55.177 E0.14874
G1 X68.503 Y54.981 E0.16476
G1 X68.468 Y54.874 E0.17017
G0 F1620 X68.4 Y54.664
G0 F2880 X67.937 Y54.664
G1 F1800 X68.128 Y54.075 E0.19996
G1 X68.629 Y53.711 E0.22976
G1 X69.247 Y53.711 E0.25949
G1 X69.749 Y54.076 E0.28935
G1 X69.941 Y54.664 E0.31911
G1 X69.749 Y55.252 E0.34887
G1 X69.247 Y55.617 E0.37873
G1 X68.629 Y55.617 E0.40846
G1 X68.128 Y55.253 E0.43825
G1 X68.063 Y55.055 E0.44828
G0 F1620 X67.937 Y54.664
G0 F2880 X67.476 Y54.664
G1 F1800 X67.754 Y53.803 E0.49181
G1 X68.485 Y53.271 E0.53531
G1 X69.391 Y53.271 E0.57889
G1 X70.123 Y53.804 E0.62246
G1 X70.403 Y54.664 E0.66597
G1 X70.123 Y55.524 E0.70948
G1 X69.391 Y56.057 E0.75305
G1 X68.485 Y56.057 E0.79664
G1 X67.754 Y55.525 E0.84013
G1 X67.645 Y55.189 E0.85713
G0 F1620 X67.476 Y54.664
G0 F2880 X67.013 Y54.664
G1 F1800 X67.379 Y53.533 E0.91432
G1 X68.343 Y52.831 E0.97169
G1 X69.533 Y52.831 E1.02894
G1 X70.497 Y53.533 E1.08632
G1 X70.866 Y54.664 E1.14355
G1 X70.497 Y55.795 E1.20079
G1 X69.533 Y56.497 E1.25816
G1 X68.343 Y56.497 E1.31541
G1 X67.379 Y55.795 E1.37279
G1 X67.183 Y55.189 E1.40343
G0 F1620 X67.013 Y54.664
G0 F2880 X66.55 Y54.664
G1 F1800 X67.004 Y53.261 E1.47437
G1 X68.199 Y52.391 E1.54549
G1 X69.677 Y52.391 E1.6166
G1 X70.872 Y53.261 E1.68771
G1 X71.329 Y54.664 E1.7587
G1 X70.872 Y56.067 E1.82969
G1 X69.677 Y56.937 E1.90081
G1 X68.199 Y56.937 E1.97191
G1 X67.004 Y56.067 E2.04303
G1 X66.72 Y55.189 E2.08743
G0 F1620 X66.55 Y54.664
G1 F2400 E-0.41257
G0 F2880 X67.334 Y58.083
G0 X70.759 Y58.112
G0 X70.759 Y61.888
G0 X68.206 Y63.048
G1 F2400 E2.08743
G1 F1800 X69.681 Y63.048 E2.15839
G1 X70.876 Y63.918 E2.2295
G1 X71.333 Y65.321 E2.30049
G1 X70.876 Y66.725 E2.37153
G1 X66.132 Y70.212 E2.65479
G1 X64.23 Y70.212 E2.7463
G1 X63.072 Y69.368 E2.81524
G1 X62.632 Y68.011 E2.88387
G1 X63.068 Y66.665 E2.95194
G1 X64.598 Y65.766 E3.03731
G1 X67.766 Y63.38 E3.22812
G0 F1620 X68.206 Y63.048
G1 F2400 E0.72812
G0 F2880 X65.12 Y68.012
G1 F2400 E3.22812
G1 F1800 X65.808 Y67.609 E3.26648
G1 X68.942 Y65.248 E3.45526
G1 X69.005 Y65.278 E3.45862
G1 X69.003 Y65.371 E3.46309
G1 X65.621 Y67.857 E3.66503
G0 F1620 X65.41 Y68.012
G0 X65.12 Y68.012
G0 F2880 X64.483 Y68.011
G1 F1800 X64.537 Y67.843 E3.67352
G1 X65.564 Y67.241 E3.7308
G1 X68.793 Y64.808 E3.92531
G1 X69.108 Y64.808 E3.94046
G1 X69.379 Y65.005 E3.95658
G1 X69.481 Y65.321 E3.97256
G1 X69.377 Y65.642 E3.98879
G1 X65.555 Y68.452 E4.21702
G1 X64.804 Y68.452 E4.25315
G1 X64.787 Y68.44 E4.25415
G0 F1620 X64.571 Y68.282
G0 X64.483 Y68.011
G0 F2880 X64.02 Y68.011
G1 F1800 X64.17 Y67.548 E4.27757
G1 X65.326 Y66.871 E4.34202
G1 X68.648 Y64.368 E4.54213
G1 X69.251 Y64.368 E4.57114
G1 X69.753 Y64.733 E4.601
G1 X69.945 Y65.321 E4.63076
G1 X69.752 Y65.912 E4.66067
G1 X65.699 Y68.892 E4.9027
G1 X64.66 Y68.892 E4.95269
G1 X64.196 Y68.554 E4.98031
G1 X64.19 Y68.536 E4.98122
G0 F1620 X64.02 Y68.011
G0 F2880 X63.557 Y68.011
G1 F1800 X63.802 Y67.254 E5.0195
G1 X65.081 Y66.504 E5.09083
G1 X68.501 Y63.928 E5.29682
G1 X69.395 Y63.928 E5.33983
G1 X70.127 Y64.461 E5.3834
G1 X70.407 Y65.321 E5.42691
G1 X70.126 Y66.183 E5.47053
G1 X65.843 Y69.332 E5.72629
G1 X64.516 Y69.332 E5.79013
G1 X63.821 Y68.825 E5.83152
G1 X63.727 Y68.536 E5.84614
G0 F1620 X63.557 Y68.011
G0 F2880 X63.095 Y68.011
G1 F1800 X63.436 Y66.959 E5.89935
G1 X64.863 Y66.117 E5.97906
G1 X68.352 Y63.488 E6.18924
G1 X69.537 Y63.488 E6.24625
G1 X70.501 Y64.19 E6.30362
G1 X70.87 Y65.321 E6.36086
G1 X70.501 Y66.454 E6.41819
G1 X65.987 Y69.772 E6.68772
G1 X64.374 Y69.772 E6.76532
G1 X63.446 Y69.097 E6.82053
G1 X63.264 Y68.536 E6.8489
G0 F1620 X63.095 Y68.011
G1 F2400 E4.3489
G0 F2880 X56.518 Y67.843
G0 X55.017 Y67.588
G0 X53.6 Y67.049
G0 X52.433 Y66.323
G0 X48.688 Y63.152
G1 F2400 E6.8489
G1 F1800 X49.149 Y64.565 E6.92041
G1 X48.688 Y65.978 E6.99192
G1 X47.483 Y66.857 E7.06367
G1 X45.995 Y66.857 E7.13526
G1 X44.79 Y65.978 E7.20702
G1 X44.332 Y64.565 E7.27848
G1 X44.79 Y63.152 E7.34995
G1 X45.995 Y62.273 E7.42171
G1 X47.483 Y62.273 E7.49329
G1 X48.242 Y62.827 E7.5385
G0 F1620 X48.688 Y63.152
G0 F2880 X46.663 Y64.508
G1 F1800 X46.767 Y64.473 E7.54378
G1 X46.817 Y64.509 E7.54675
G1 X46.817 Y64.621 E7.55214
G1 X46.767 Y64.657 E7.5551
G1 X46.663 Y64.622 E7.56038
G1 X46.663 Y64.541 E7.56428
G0 F1620 X46.663 Y64.508
G0 F2880 X46.183 Y64.565
G1 F1800 X46.289 Y64.236 E7.58091
G1 X46.568 Y64.033 E7.59751
G1 X46.91 Y64.033 E7.61396
G1 X47.19 Y64.237 E7.63063
G1 X47.297 Y64.565 E7.64723
G1 X47.19 Y64.893 E7.66382
G1 X46.91 Y65.097 E7.68049
G1 X46.568 Y65.097 E7.69695
G1 X46.289 Y64.894 E7.71355
G1 X46.253 Y64.783 E7.71916
G0 F1620 X46.183 Y64.565
G0 F2880 X45.72 Y64.565
G1 F1800 X45.914 Y63.966 E7.74945
G1 X46.425 Y63.593 E7.77989
G1 X47.053 Y63.593 E7.8101
G1 X47.566 Y63.967 E7.84065
G1 X47.761 Y64.565 E7.87091
G1 X47.566 Y65.163 E7.90117
G1 X47.053 Y65.537 E7.93171
G1 X46.425 Y65.537 E7.96193
G1 X45.914 Y65.164 E7.99236
G1 X45.849 Y64.964 E8.00248
G0 F1620 X45.72 Y64.565
G0 F2880 X45.257 Y64.565
G1 F1800 X45.539 Y63.694 E8.04653
G1 X46.281 Y63.153 E8.09071
G1 X47.197 Y63.153 E8.13478
G1 X47.939 Y63.694 E8.17895
G1 X48.223 Y64.565 E8.22303
G1 X47.939 Y65.436 E8.26711
G1 X47.197 Y65.977 E8.31129
G1 X46.281 Y65.977 E8.35536
G1 X45.539 Y65.436 E8.39953
G1 X45.427 Y65.09 E8.41703
G0 F1620 X45.257 Y64.565
G0 F2880 X44.795 Y64.565
G1 F1800 X45.165 Y63.422 E8.47483
G1 X46.138 Y62.713 E8.53275
G1 X47.34 Y62.713 E8.59058
G1 X48.313 Y63.422 E8.6485
G1 X48.686 Y64.565 E8.70635
G1 X48.313 Y65.708 E8.76419
G1 X47.34 Y66.417 E8.82211
G1 X46.138 Y66.417 E8.87994
G1 X45.165 Y65.708 E8.93786
G1 X44.965 Y65.09 E8.96911
G0 F1620 X44.795 Y64.565
G1 F2400 E6.46911
;MESH:plug-sensor-chip.stl
G0 F2880 X49.466 Y61.936
G0 X50.522 Y61.62
G0 X50.994 Y60.291
;TYPE:WALL-INNER
G1 F2400 E8.96911
G1 F1800 X51.052 Y60.886 E8.99788
G1 X51.165 Y61.457 E9.02588
G1 X51.33 Y62.006 E9.05346
G1 X51.555 Y62.567 E9.08254
G1 X51.833 Y63.096 E9.11129
G1 X52.15 Y63.579 E9.13909
G1 X52.524 Y64.044 E9.1678
G1 X52.937 Y64.469 E9.19631
G1 X53.376 Y64.839 E9.22393
G1 X53.871 Y65.181 E9.25288
G1 X54.384 Y65.466 E9.28111
G1 X54.927 Y65.704 E9.30963
G1 X55.492 Y65.887 E9.33821
G1 X56.057 Y66.011 E9.36603
G1 X56.645 Y66.081 E9.39452
G1 X57.235 Y66.096 E9.42292
G1 X57.813 Y66.053 E9.4508
G1 X58.409 Y65.952 E9.47989
G1 X58.949 Y65.806 E9.5068
G1 X59.522 Y65.589 E9.53628
G1 X60.047 Y65.33 E9.56444
G1 X60.573 Y65.003 E9.59424
G1 X65.325 Y61.56 E9.87656
G1 X65.604 Y61.294 E9.89511
G1 X65.811 Y61.009 E9.91206
G1 X65.964 Y60.69 E9.92908
G1 X66.121 Y60.135 E9.95683
G1 X66.19 Y59.986 E9.96473
G1 X66.117 Y59.838 E9.97267
G1 X65.962 Y59.303 E9.99946
G1 X65.811 Y58.991 E10.01614
G1 X65.604 Y58.706 E10.03309
G1 X65.325 Y58.44 E10.05163
G1 X60.573 Y54.997 E10.33396
G1 X60.046 Y54.67 E10.36379
G1 X59.521 Y54.411 E10.39196
G1 X58.949 Y54.193 E10.42141
G1 X58.411 Y54.048 E10.44822
G1 X57.813 Y53.947 E10.47739
G1 X57.235 Y53.904 E10.50528
G1 X56.645 Y53.919 E10.53367
G1 X56.059 Y53.989 E10.56207
G1 X55.492 Y54.115 E10.59001
G1 X54.925 Y54.297 E10.61866
G1 X54.383 Y54.534 E10.64712
G1 X53.871 Y54.819 E10.67531
G1 X53.376 Y55.161 E10.70426
G1 X52.937 Y55.531 E10.73188
G1 X52.524 Y55.956 E10.76039
G1 X52.15 Y56.421 E10.7891
G1 X51.833 Y56.904 E10.8169
G1 X51.555 Y57.433 E10.84565
G1 X51.33 Y57.994 E10.87473
G1 X51.165 Y58.543 E10.90231
G1 X51.052 Y59.114 E10.93031
G1 X50.994 Y59.711 E10.95917
G1 X50.994 Y59.739 E10.96052
G0 F1620 X50.994 Y60.291
G0 F2880 X50.554 Y60.312
G1 F1800 X50.616 Y60.95 E10.99135
G1 X50.738 Y61.563 E11.02143
G1 X50.914 Y62.152 E11.051
G1 X51.155 Y62.751 E11.08206
G1 X51.453 Y63.319 E11.11292
G1 X51.794 Y63.839 E11.14284
G1 X52.194 Y64.336 E11.17353
G1 X52.637 Y64.791 E11.20409
G1 X53.108 Y65.189 E11.23375
G1 X53.638 Y65.555 E11.26474
G1 X54.188 Y65.86 E11.295
G1 X54.77 Y66.116 E11.32559
G1 X55.377 Y66.313 E11.35629
G1 X55.983 Y66.445 E11.38613
G1 X56.613 Y66.521 E11.41666
G1 X57.246 Y66.537 E11.44712
G1 X57.866 Y66.491 E11.47703
G1 X58.504 Y66.382 E11.50817
G1 X59.085 Y66.225 E11.53713
G1 X59.698 Y65.993 E11.56866
G1 X60.261 Y65.715 E11.59887
G1 X60.818 Y65.368 E11.63044
G1 X65.607 Y61.899 E11.91494
G1 X65.937 Y61.585 E11.93686
G1 X66.19 Y61.236 E11.9576
G1 X66.378 Y60.845 E11.97847
G1 X66.535 Y60.287 E12.00636
G1 X66.731 Y60.004 E12.02292
G1 X66.525 Y59.674 E12.04163
G1 X66.375 Y59.148 E12.06795
G1 X66.191 Y58.764 E12.08844
G1 X65.937 Y58.415 E12.1092
G1 X65.607 Y58.101 E12.13112
G1 X60.818 Y54.632 E12.41562
G1 X60.26 Y54.285 E12.44723
G1 X59.697 Y54.007 E12.47744
G1 X59.085 Y53.773 E12.50896
G1 X58.505 Y53.618 E12.53784
G1 X57.866 Y53.509 E12.56903
G1 X57.246 Y53.463 E12.59894
G1 X56.613 Y53.48 E12.62941
G1 X55.985 Y53.555 E12.65984
G1 X55.377 Y53.69 E12.6898
G1 X54.769 Y53.885 E12.72052
G1 X54.188 Y54.14 E12.75104
G1 X53.638 Y54.445 E12.7813
G1 X53.108 Y54.811 E12.81229
G1 X52.637 Y55.209 E12.84196
G1 X52.194 Y55.664 E12.87251
G1 X51.794 Y56.161 E12.9032
G1 X51.453 Y56.681 E12.93312
G1 X51.155 Y57.249 E12.96398
G1 X50.914 Y57.848 E12.99504
G1 X50.738 Y58.437 E13.02462
G1 X50.616 Y59.05 E13.05469
G1 X50.554 Y59.69 E13.08562
G1 X50.554 Y59.76 E13.08899
G0 F1620 X50.554 Y60.312
G1 F2400 E10.58899
G0 F2880 X50.813 Y60.301
G0 X51.857 Y62.754
G0 X52.481 Y63.703
G0 X53.274 Y64.516
G0 X54.229 Y65.171
G0 X55.268 Y65.624
G0 X56.384 Y65.868
G0 X57.519 Y65.894
G0 X58.628 Y65.706
G0 X59.702 Y65.299
G0 X60.639 Y64.732
G0 X65.347 Y61.288
G0 X66.895 Y59.885
G0 X68.309 Y60.006
G0 X69.082 Y59.664
G1 F2400 E13.08899
G0 F2880 X68.947 Y59.495
G1 F1365.5 X68.833 Y59.859 E13.11318
G1 X68.727 Y60 E13.12437
G1 X68.834 Y60.142 E13.13564
G1 X68.948 Y60.505 E13.15977
G1 X69.376 Y60.505 E13.18692
G1 X69.376 Y59.734 E13.23581
G1 X69.376 Y59.495 E13.25097
G1 X69.139 Y59.495 E13.266
G0 F1620 X68.947 Y59.495
G0 F2880 X69.082 Y59.664
G0 X68.243 Y60.233
;TYPE:WALL-OUTER
G1 F1800 X68.389 Y60.392 E13.27638
G1 X68.449 Y60.594 E13.28652
G1 X68.456 Y61.015 E13.30678
G1 X69.886 Y61.015 E13.37558
G1 X69.886 Y59.734 E13.43721
G1 X69.886 Y58.985 E13.47324
G1 X68.456 Y58.985 E13.54204
G1 X68.449 Y59.407 E13.56235
G1 X68.388 Y59.611 E13.57259
G1 X68.242 Y59.768 E13.58291
G1 F1960.4 X67.984 Y59.828 E13.59461
G1 F2123.3 X67.29 Y59.828 E13.62291
G1 F1936.4 X67.084 Y59.74 E13.63293
G1 F1800 X66.934 Y59.511 E13.6461
G1 X66.789 Y58.992 E13.67203
G1 X66.57 Y58.538 E13.69628
G1 X66.269 Y58.124 E13.7209
G1 X65.889 Y57.762 E13.74615
G1 X61.064 Y54.266 E14.03282
G1 X60.474 Y53.9 E14.06622
G1 X59.873 Y53.603 E14.09847
G1 X59.221 Y53.354 E14.13205
G1 X58.599 Y53.188 E14.16302
G1 X57.92 Y53.072 E14.19616
G1 X57.256 Y53.023 E14.2282
G1 X56.581 Y53.04 E14.26068
G1 X55.911 Y53.121 E14.29315
G1 X55.262 Y53.265 E14.32513
G1 X54.613 Y53.473 E14.35792
G1 X53.992 Y53.745 E14.39054
G1 X53.406 Y54.071 E14.4228
G1 X52.84 Y54.461 E14.45587
G1 X52.337 Y54.887 E14.48758
G1 X51.864 Y55.372 E14.52017
G1 X51.438 Y55.902 E14.55289
G1 X51.073 Y56.457 E14.58485
G1 X50.755 Y57.064 E14.61782
G1 X50.498 Y57.702 E14.65091
G1 X50.31 Y58.331 E14.68249
G1 X50.18 Y58.986 E14.71462
G1 X50.114 Y59.669 E14.74763
G1 X50.114 Y60.333 E14.77958
G1 X50.18 Y61.014 E14.81249
G1 X50.31 Y61.669 E14.84462
G1 X50.498 Y62.298 E14.87621
G1 X50.755 Y62.936 E14.9093
G1 X51.073 Y63.543 E14.94227
G1 X51.438 Y64.098 E14.97422
G1 X51.864 Y64.628 E15.00694
G1 X52.337 Y65.113 E15.03953
G1 X52.84 Y65.539 E15.07124
G1 X53.406 Y65.929 E15.10431
G1 X53.992 Y66.255 E15.13657
G1 X54.614 Y66.528 E15.16926
G1 X55.262 Y66.738 E15.20203
G1 X55.91 Y66.879 E15.23393
G1 X56.581 Y66.96 E15.26645
G1 X57.256 Y66.977 E15.29893
G1 X57.92 Y66.928 E15.33097
G1 X58.598 Y66.812 E15.36406
G1 X59.221 Y66.644 E15.3951
G1 X59.874 Y66.397 E15.42869
G1 X60.475 Y66.1 E15.46094
G1 X61.064 Y65.734 E15.49431
G1 X65.889 Y62.238 E15.78097
G1 X66.269 Y61.876 E15.80622
G1 X66.57 Y61.462 E15.83085
G1 X66.792 Y61.001 E15.85546
G1 X66.957 Y60.403 E15.88531
G1 F1816.5 X67.144 Y60.219 E15.89782
G1 F2020.4 X67.397 Y60.176 E15.90882
G1 F2200 X67.984 Y60.172 E15.93192
G1 F1960.4 X68.243 Y60.233 E15.94368
G0 F2880 X68.378 Y60.38
G1 F2400 E13.44368
G0 F2880 X68.957 Y60.001
G0 X66.895 Y59.885
G0 X65.108 Y61.494
G0 X59.959 Y65.171
G0 X58.893 Y65.634
G0 X57.79 Y65.874
G0 X56.659 Y65.901
G0 X55.54 Y65.713
G0 X54.464 Y65.303
G0 X53.486 Y64.695
G0 X52.66 Y63.924
G0 X51.989 Y63.004
G0 X51.501 Y61.946
G0 X51.114 Y60.271
G1 F2400 E15.94368
G0 F2880 X51.412 Y60.271
;TYPE:SKIN
G1 F1800 X51.466 Y60.823 E15.97036
G1 X51.573 Y61.355 E15.99647
G1 X51.724 Y61.866 E16.0221
G1 X51.935 Y62.389 E16.04924
G1 X52.193 Y62.882 E16.07601
G1 X52.489 Y63.332 E16.10192
G1 X52.838 Y63.765 E16.12868
G1 X53.224 Y64.161 E16.15528
G1 X53.631 Y64.506 E16.18095
G1 X54.09 Y64.824 E16.20782
G1 X54.569 Y65.09 E16.23418
G1 X55.076 Y65.314 E16.26084
G1 X55.615 Y65.488 E16.28809
G1 X56.126 Y65.597 E16.31323
G1 X56.675 Y65.664 E16.33984
G1 X57.224 Y65.677 E16.36626
G1 X57.761 Y65.638 E16.39216
G1 X58.318 Y65.543 E16.41935
G1 X58.806 Y65.411 E16.44367
G1 X59.354 Y65.204 E16.47185
G1 X59.844 Y64.962 E16.49814
G1 X60.338 Y64.655 E16.52613
G1 X65.056 Y61.237 E16.80642
G1 X65.289 Y61.016 E16.82187
G1 X65.572 Y60.539 E16.84855
G1 X65.733 Y59.975 E16.87677
G1 X65.569 Y59.453 E16.9031
G1 X65.289 Y58.983 E16.92942
G1 X65.055 Y58.762 E16.9449
G1 X60.34 Y55.345 E17.22505
G1 X59.843 Y55.038 E17.25316
G1 X59.352 Y54.795 E17.27951
G1 X58.821 Y54.591 E17.30688
G1 X58.322 Y54.458 E17.33173
G1 X57.761 Y54.362 E17.35911
G1 X57.226 Y54.323 E17.38492
G1 X56.675 Y54.337 E17.41143
G1 X56.141 Y54.4 E17.4373
G1 X55.602 Y54.519 E17.46386
G1 X55.073 Y54.688 E17.49058
G1 X54.568 Y54.91 E17.51712
G1 X54.091 Y55.174 E17.54335
G1 X53.631 Y55.495 E17.57033
G1 X53.224 Y55.839 E17.59597
G1 X52.838 Y56.235 E17.62258
G1 X52.489 Y56.668 E17.64933
G1 X52.193 Y57.118 E17.67525
G1 X51.936 Y57.61 E17.70195
G1 X51.722 Y58.147 E17.72976
G1 X51.573 Y58.646 E17.75482
G1 X51.466 Y59.176 E17.78083
G1 X51.413 Y59.72 E17.80713
G0 F1620 X51.412 Y59.733
G0 X51.412 Y60.271
G0 F2880 X51.114 Y60.271
G0 X51.501 Y61.946
G0 X51.989 Y63.004
G0 X52.531 Y63.749
G0 X53.345 Y64.655
G0 X53.68 Y64.259
G1 F1800 X52.849 Y63.427 E17.8637
G1 X52.772 Y63.35
G0 F2880 X52.377 Y63.668
G0 X51.514 Y62.143
G0 X51.996 Y61.952
G1 F1800 X55.148 Y65.104 E18.07816
G1 X55.225 Y65.181
G0 F2880 X56.014 Y65.347
G1 F1800 X51.74 Y61.074 E18.36892
G0 F2880 X51.64 Y60.352
G1 F1800 X56.732 Y65.444 E18.71538
G0 F2880 X57.356 Y65.446
G1 F1800 X51.632 Y59.722 E19.10483
G0 F2880 X51.693 Y59.16
G1 F1800 X57.919 Y65.386 E19.52844
G0 F2880 X58.451 Y65.296
G1 F1800 X51.801 Y58.646 E19.9809
G0 F2880 X51.949 Y58.171
G1 F1800 X58.911 Y65.134 E20.45462
G0 F2880 X59.355 Y64.956
G1 F1800 X52.125 Y57.726 E20.94654
G0 F2880 X52.337 Y57.315
G1 F1800 X59.769 Y64.747 E21.45221
G0 F2880 X60.153 Y64.509
G1 F1800 X52.576 Y56.932 E21.96774
G0 F2880 X52.843 Y56.577
G1 F1800 X60.518 Y64.251 E22.48991
G0 F2880 X60.879 Y63.99
G1 F1800 X53.134 Y56.245 E23.01687
