;FLAVOR:Marlin
;TIME:909
;Filament used: 0.718616m
;Layer height: 0.21875
;MINX:44.775
;MINY:49.932
;MINZ:0.263
;MAXX:74.985
;MAXY:67.277
;MAXZ:31.361
;Generated with Cura_SteamEngine main
M140 S45
M105
M190 S45
M104 S215
M105
M109 S215
M82 ;absolute extrusion mode
G21;(metric values)
G90;(absolute positioning)
M82;(set extruder to absolute mode)
M107;(start with the fan off)
G28;(Home the printer)
G92 E0;(Reset the extruder to 0)
G0 Z5 E5 F500;(Move up and prime the nozzle)
G0 X-1 Z0;(Move outside the printable area)
G1 Y60 E8 F500;(Draw a priming/wiping line to the rear)
G1 X-1;(Move a little closer to the print area)
G1 Y10 E16 F500;(draw more priming/wiping)
G1 E15 F250;(Small retract)
G92 E0;(Zero the extruder)
G92 E0
G92 E0
G1 F2400 E-2.5
;LAYER_COUNT:143
;LAYER:0
M107
G0 F2880 X70.717 Y55.161 Z0.263
;TYPE:SKIRT
G1 F2400 E0
G1 F1800 X70.756 Y55.19 E0.00234
G1 X70.805 Y55.248 E0.00599
G1 X70.727 Y55.17 E0.0113
G0 F1620 X70.717 Y55.161
G0 F2880 X70.941 Y55.41
G1 F1800 X72.083 Y56.768 E0.09666
G1 X72.689 Y58.564 E0.18786
G1 X72.706 Y60.013 E0.25757
G1 X72.584 Y60.383 E0.27632
G1 X72.423 Y59.886 E0.30145
G1 X72.207 Y57.703 E0.40699
G1 X72.124 Y57.272 E0.42811
G1 X71.965 Y56.862 E0.44926
G1 X71.734 Y56.488 E0.47041
G1 X71.272 Y56.026 E0.50185
G1 X71.213 Y55.888 E0.50907
G0 F1620 X71.131 Y55.696
G0 X70.941 Y55.41
G1 F2400 E-1.99093
G0 F2880 X66.857 Y53.219
G1 F2400 E0.50907
G1 F1800 X65.85 Y52.552 E0.56718
G1 X65.705 Y52.103 E0.58988
G1 X65.863 Y51.616 E0.61451
G1 X66.279 Y51.313 E0.63927
G1 X66.992 Y51.313 E0.67357
G1 X71.36 Y54.542 E0.93491
G1 X72.864 Y56.331 E1.04735
G1 X73.568 Y58.414 E1.15314
G1 X73.587 Y60.149 E1.23662
G1 X73.334 Y60.926 E1.27593
G1 X72.868 Y61.265 E1.30365
G1 X72.3 Y61.265 E1.33098
G1 X71.836 Y60.927 E1.3586
G1 X71.556 Y60.065 E1.4022
G1 X71.331 Y57.79 E1.51219
G1 X71.257 Y57.448 E1.52902
G1 X71.108 Y57.131 E1.54588
G1 X70.891 Y56.856 E1.56273
G1 X70.53 Y56.57 E1.58489
G1 X70.321 Y56.052 E1.61176
G1 X70.073 Y55.729 E1.63135
G1 X67.292 Y53.558 E1.80109
G0 F1620 X66.857 Y53.219
G0 F2880 X66.168 Y52.103
G1 F1800 X66.237 Y51.888 E1.81195
G1 X66.423 Y51.753 E1.82301
G1 X66.846 Y51.753 E1.84336
G1 X71.058 Y54.866 E2.09534
G1 X72.474 Y56.55 E2.2012
G1 X73.129 Y58.489 E2.29966
G1 X73.146 Y60.079 E2.37616
G1 X72.959 Y60.654 E2.40525
G1 X72.724 Y60.825 E2.41924
G1 X72.444 Y60.825 E2.43271
G1 X72.211 Y60.655 E2.44658
G1 X71.989 Y59.971 E2.48118
G1 X71.769 Y57.747 E2.5887
G1 X71.691 Y57.357 E2.60784
G1 X71.536 Y56.991 E2.62696
G1 X71.311 Y56.663 E2.64609
G1 X70.905 Y56.297 E2.67239
G1 X70.725 Y55.872 E2.6946
G1 X70.496 Y55.547 E2.71373
G1 X70.219 Y55.284 E2.7321
G1 X67.064 Y52.822 E2.92464
G1 X66.537 Y52.476 E2.95497
G0 F1620 X66.221 Y52.268
G0 X66.168 Y52.103
G0 F2880 X65.242 Y52.103
G1 F1800 X65.488 Y51.345 E2.99331
G1 X66.135 Y50.873 E3.03184
G1 X67.135 Y50.873 E3.07995
G1 X71.666 Y54.222 E3.35102
G1 X73.255 Y56.111 E3.46978
G1 X74.007 Y58.339 E3.58291
G1 X74.028 Y60.215 E3.67318
G1 X73.707 Y61.198 E3.72293
G1 X73.012 Y61.705 E3.76431
G1 X72.156 Y61.705 E3.8055
G1 X71.461 Y61.198 E3.84689
G1 X71.125 Y60.161 E3.89933
G1 X70.894 Y57.834 E4.01183
G1 X70.825 Y57.546 E4.02608
G1 X70.682 Y57.286 E4.04036
G1 X70.447 Y57.053 E4.05628
G1 X70.156 Y56.841 E4.0736
G1 X69.919 Y56.24 E4.10468
G1 X69.678 Y55.978 E4.12181
G1 X66.587 Y53.566 E4.31044
G1 X65.479 Y52.834 E4.37433
G1 X65.412 Y52.628 E4.38475
G0 F1620 X65.242 Y52.103
G0 F2880 X64.78 Y52.103
G1 F1800 X65.113 Y51.073 E4.43683
G1 X65.993 Y50.433 E4.48918
G1 X67.281 Y50.433 E4.55115
G1 X71.969 Y53.898 E4.83161
G1 X73.645 Y55.892 E4.95693
G1 X74.446 Y58.264 E5.07738
G1 X74.469 Y60.281 E5.17443
G1 X74.081 Y61.47 E5.2346
G1 X73.154 Y62.145 E5.28977
G1 X72.014 Y62.145 E5.34461
G1 X71.086 Y61.47 E5.39982
G1 X70.691 Y60.249 E5.46156
G1 X70.456 Y57.877 E5.57624
G1 X70.394 Y57.656 E5.58728
G1 X70.188 Y57.409 E5.60276
G1 X69.781 Y57.112 E5.627
G1 X69.629 Y56.642 E5.65076
G1 X69.499 Y56.397 E5.66411
G1 X66.272 Y53.881 E5.86097
G1 X65.108 Y53.117 E5.92796
G1 X64.95 Y52.628 E5.95268
G0 F1620 X64.78 Y52.103
G0 F2880 X64.317 Y52.103
G1 F1800 X64.739 Y50.802 E6.01848
G1 X65.849 Y49.993 E6.08456
G1 X67.425 Y49.993 E6.16039
G1 X72.273 Y53.576 E6.45042
G1 X74.036 Y55.673 E6.58222
G1 X74.885 Y58.189 E6.70997
G1 X74.91 Y60.351 E6.814
G1 X74.456 Y61.741 E6.88435
G1 X73.298 Y62.585 E6.95329
G1 X71.87 Y62.585 E7.02199
G1 X70.712 Y61.741 E7.09093
G1 X70.258 Y60.34 E7.16178
G1 X70.018 Y57.92 E7.27878
G1 X69.929 Y57.764 E7.28742
G1 X69.406 Y57.382 E7.31858
G1 X69.21 Y56.777 E7.34918
G1 X69.136 Y56.672 E7.35536
G1 X66.031 Y54.249 E7.54484
G1 X64.737 Y53.399 E7.61933
G1 X64.487 Y52.628 E7.65832
G0 F1620 X64.317 Y52.103
G1 F2400 E5.15832
G0 F2880 X57.968 Y52.157
G0 X56.467 Y52.412
G0 X55.05 Y52.951
G0 X53.753 Y53.758
G0 X52.763 Y54.68
G0 X49.162 Y59.191
G1 F2400 E7.65832
G1 F1800 X49.615 Y60.583 E7.72875
G1 X49.162 Y61.975 E7.79918
G1 X47.976 Y62.838 E7.86975
G1 X46.51 Y62.838 E7.94028
G1 X45.324 Y61.975 E8.01084
G1 X44.874 Y60.583 E8.08122
G1 X45.324 Y59.191 E8.15161
G1 X46.51 Y58.328 E8.22217
G1 X47.976 Y58.328 E8.2927
G1 X48.716 Y58.867 E8.33675
G0 F1620 X49.162 Y59.191
G0 F2880 X47.187 Y60.583
G1 F1800 X47.225 Y60.528 E8.33997
G1 X47.291 Y60.55 E8.34331
G1 X47.291 Y60.616 E8.34649
G1 X47.225 Y60.638 E8.34984
G1 X47.197 Y60.598 E8.35218
G0 F1620 X47.187 Y60.583
G0 F2880 X46.724 Y60.583
G1 F1800 X46.823 Y60.277 E8.36766
G1 X47.083 Y60.088 E8.38312
G1 X47.403 Y60.088 E8.39852
G1 X47.665 Y60.278 E8.41409
G1 X47.764 Y60.583 E8.42952
G1 X47.665 Y60.888 E8.44494
G1 X47.403 Y61.078 E8.46051
G1 X47.083 Y61.078 E8.47591
G1 X46.823 Y60.889 E8.49137
G1 X46.789 Y60.786 E8.49659
G0 F1620 X46.724 Y60.583
G0 F2880 X46.261 Y60.583
G1 F1800 X46.448 Y60.005 E8.52582
G1 X46.939 Y59.648 E8.55503
G1 X47.547 Y59.648 E8.58428
G1 X48.04 Y60.007 E8.61362
G1 X48.227 Y60.583 E8.64275
G1 X48.04 Y61.159 E8.67189
G1 X47.547 Y61.518 E8.70123
G1 X46.939 Y61.518 E8.73048
G1 X46.448 Y61.161 E8.75969
G1 X46.385 Y60.967 E8.7695
G0 F1620 X46.261 Y60.583
G0 F2880 X45.799 Y60.583
G1 F1800 X46.074 Y59.734 E8.81244
G1 X46.797 Y59.208 E8.85545
G1 X47.689 Y59.208 E8.89837
G1 X48.414 Y59.735 E8.94149
G1 X48.689 Y60.583 E8.98438
G1 X48.414 Y61.431 E9.02727
G1 X47.689 Y61.958 E9.07039
G1 X46.797 Y61.958 E9.1133
G1 X46.074 Y61.432 E9.15632
G1 X45.969 Y61.108 E9.17271
G0 F1620 X45.799 Y60.583
G0 F2880 X45.337 Y60.583
G1 F1800 X45.699 Y59.463 E9.22933
G1 X46.654 Y58.768 E9.28616
G1 X47.832 Y58.768 E9.34283
G1 X48.787 Y59.463 E9.39966
G1 X49.152 Y60.583 E9.45633
G1 X48.787 Y61.703 E9.51301
G1 X47.832 Y62.398 E9.56983
G1 X46.654 Y62.398 E9.6265
G1 X45.699 Y61.703 E9.68333
G1 X45.506 Y61.108 E9.71342
G0 F1620 X45.337 Y60.583
G1 F2400 E7.21342
;MESH:plug-sensor.stl
G0 F2880 X50.686 Y60.43
G0 X51.783 Y60.324
G0 X52.444 Y60.291
;TYPE:WALL-INNER
G1 F2400 E9.71342
G1 F1800 X52.502 Y60.887 E9.74223
G1 X52.615 Y61.458 E9.77024
G1 X52.779 Y62.006 E9.79776
G1 X53.005 Y62.566 E9.82681
G1 X53.283 Y63.096 E9.8556
G1 X53.6 Y63.579 E9.8834
G1 X53.974 Y64.044 E9.91211
G1 X54.387 Y64.469 E9.94062
G1 X54.826 Y64.839 E9.96824
G1 X55.321 Y65.181 E9.99719
G1 X55.834 Y65.466 E10.02542
G1 X56.377 Y65.704 E10.05395
G1 X56.942 Y65.887 E10.08252
G1 X57.507 Y66.011 E10.11035
G1 X58.095 Y66.081 E10.13884
G1 X58.685 Y66.096 E10.16723
G1 X59.263 Y66.053 E10.19512
G1 X59.859 Y65.952 E10.2242
G1 X60.399 Y65.806 E10.25111
G1 X60.972 Y65.589 E10.28059
G1 X61.5 Y65.328 E10.30893
G1 X62.014 Y65.009 E10.33803
G1 X62.185 Y64.885 E10.34819
G1 X66.775 Y61.56 E10.62087
G1 X67.054 Y61.294 E10.63942
G1 X67.261 Y61.009 E10.65637
G1 X67.414 Y60.692 E10.6733
G1 X67.506 Y60.351 E10.69029
G1 X67.539 Y59.999 E10.7073
G1 X67.507 Y59.65 E10.72416
G1 X67.411 Y59.303 E10.74149
G1 X67.261 Y58.991 E10.75814
G1 X67.054 Y58.706 E10.77509
G1 X66.775 Y58.44 E10.79363
G1 X62.014 Y54.991 E11.07648
G1 X61.499 Y54.674 E11.10557
G1 X60.971 Y54.411 E11.13395
G1 X60.399 Y54.193 E11.1634
G1 X59.861 Y54.048 E11.19021
G1 X59.263 Y53.947 E11.21939
G1 X58.685 Y53.904 E11.24727
G1 X58.095 Y53.919 E11.27567
G1 X57.509 Y53.989 E11.30406
G1 X56.942 Y54.115 E11.332
G1 X56.375 Y54.297 E11.36065
G1 X55.833 Y54.534 E11.38911
G1 X55.321 Y54.819 E11.4173
G1 X54.826 Y55.161 E11.44625
G1 X54.387 Y55.531 E11.47387
G1 X53.974 Y55.956 E11.50238
G1 X53.6 Y56.421 E11.53109
G1 X53.283 Y56.904 E11.55889
G1 X53.005 Y57.434 E11.58768
G1 X52.779 Y57.994 E11.61674
G1 X52.615 Y58.542 E11.64426
G1 X52.502 Y59.113 E11.67226
G1 X52.444 Y59.711 E11.70116
G1 X52.444 Y59.739 E11.70251
G0 F1620 X52.444 Y60.291
G0 F2880 X52.004 Y60.312
G1 F1800 X52.066 Y60.951 E11.7334
G1 X52.187 Y61.564 E11.76346
G1 X52.363 Y62.152 E11.79299
G1 X52.605 Y62.751 E11.82407
G1 X52.903 Y63.319 E11.85493
G1 X53.244 Y63.839 E11.88485
G1 X53.644 Y64.336 E11.91554
G1 X54.087 Y64.791 E11.94609
G1 X54.558 Y65.189 E11.97576
G1 X55.088 Y65.555 E12.00675
G1 X55.638 Y65.86 E12.037
G1 X56.22 Y66.116 E12.06759
G1 X56.827 Y66.313 E12.0983
G1 X57.433 Y66.445 E12.12814
G1 X58.063 Y66.521 E12.15867
G1 X58.696 Y66.537 E12.18913
G1 X59.316 Y66.491 E12.21904
G1 X59.954 Y66.382 E12.25018
G1 X60.535 Y66.225 E12.27913
G1 X61.148 Y65.993 E12.31067
G1 X61.714 Y65.713 E12.34105
G1 X62.259 Y65.374 E12.37193
G1 X62.443 Y65.241 E12.38285
G1 X67.057 Y61.899 E12.65695
G1 X67.387 Y61.585 E12.67886
G1 X67.64 Y61.236 E12.6996
G1 X67.828 Y60.846 E12.72043
G1 X67.941 Y60.43 E12.74117
G1 X67.981 Y59.999 E12.76199
G1 X67.941 Y59.571 E12.78267
G1 X67.825 Y59.147 E12.80382
G1 X67.641 Y58.764 E12.82427
G1 X67.387 Y58.415 E12.84503
G1 X67.057 Y58.101 E12.86695
G1 X62.259 Y54.626 E13.15197
G1 X61.714 Y54.288 E13.18282
G1 X61.147 Y54.007 E13.21327
G1 X60.535 Y53.773 E13.24479
G1 X59.955 Y53.618 E13.27367
G1 X59.316 Y53.509 E13.30486
G1 X58.696 Y53.463 E13.33477
G1 X58.063 Y53.48 E13.36523
G1 X57.435 Y53.555 E13.39566
G1 X56.827 Y53.69 E13.42563
G1 X56.219 Y53.885 E13.45635
G1 X55.638 Y54.14 E13.48687
G1 X55.088 Y54.445 E13.51713
G1 X54.558 Y54.811 E13.54812
G1 X54.087 Y55.209 E13.57778
G1 X53.644 Y55.664 E13.60834
G1 X53.244 Y56.161 E13.63903
G1 X52.903 Y56.681 E13.66895
G1 X52.605 Y57.249 E13.69981
G1 X52.363 Y57.848 E13.73089
G1 X52.187 Y58.436 E13.76042
G1 X52.066 Y59.049 E13.79048
G1 X52.004 Y59.69 E13.82146
G1 X52.004 Y59.76 E13.82483
G0 F1620 X52.004 Y60.312
G0 F2880 X51.564 Y60.333
;TYPE:WALL-OUTER
G1 F1800 X51.63 Y61.015 E13.85779
G1 X51.759 Y61.67 E13.88991
G1 X51.947 Y62.298 E13.92145
G1 X52.205 Y62.936 E13.95456
G1 X52.523 Y63.543 E13.98753
G1 X52.888 Y64.098 E14.01949
G1 X53.314 Y64.628 E14.0522
G1 X53.787 Y65.113 E14.08479
G1 X54.29 Y65.539 E14.11651
G1 X54.856 Y65.929 E14.14957
G1 X55.442 Y66.255 E14.18184
G1 X56.064 Y66.528 E14.21452
G1 X56.712 Y66.738 E14.24729
G1 X57.36 Y66.879 E14.27919
G1 X58.031 Y66.96 E14.31171
G1 X58.706 Y66.977 E14.3442
G1 X59.37 Y66.928 E14.37623
G1 X60.048 Y66.812 E14.40932
G1 X60.671 Y66.644 E14.44037
G1 X61.324 Y66.397 E14.47395
G1 X61.928 Y66.098 E14.50638
G1 X62.505 Y65.74 E14.53905
G1 X62.701 Y65.597 E14.55072
G1 X67.339 Y62.238 E14.82623
G1 X67.719 Y61.876 E14.85148
G1 X68.02 Y61.462 E14.87611
G1 X68.242 Y61.001 E14.90072
G1 X68.376 Y60.509 E14.92526
G1 X68.423 Y59.999 E14.9499
G1 X68.376 Y59.491 E14.97444
G1 X68.239 Y58.992 E14.99934
G1 X68.02 Y58.538 E15.02359
G1 X67.719 Y58.124 E15.04821
G1 X67.339 Y57.762 E15.07346
G1 X62.505 Y54.26 E15.36065
G1 X61.928 Y53.902 E15.39332
G1 X61.323 Y53.603 E15.42578
G1 X60.671 Y53.354 E15.45936
G1 X60.049 Y53.188 E15.49033
G1 X59.37 Y53.072 E15.52348
G1 X58.706 Y53.023 E15.55551
G1 X58.031 Y53.04 E15.58799
G1 X57.361 Y53.121 E15.62046
G1 X56.712 Y53.265 E15.65244
G1 X56.063 Y53.473 E15.68523
G1 X55.442 Y53.745 E15.71785
G1 X54.856 Y54.071 E15.75011
G1 X54.29 Y54.461 E15.78318
G1 X53.787 Y54.887 E15.81489
G1 X53.314 Y55.372 E15.84749
G1 X52.888 Y55.902 E15.8802
G1 X52.523 Y56.457 E15.91216
G1 X52.205 Y57.064 E15.94513
G1 X51.947 Y57.702 E15.97824
G1 X51.759 Y58.33 E16.00978
G1 X51.63 Y58.985 E16.04189
G1 X51.564 Y59.669 E16.07495
G1 X51.564 Y59.781 E16.08034
G0 F1620 X51.564 Y60.333
G0 F2880 X51.583 Y60.532
G0 X52.28 Y60.466
G0 X52.862 Y60.271
;TYPE:SKIN
G1 F1800 X52.916 Y60.824 E16.10707
G1 X53.022 Y61.355 E16.13313
G1 X53.17 Y61.853 E16.15812
G1 X53.386 Y62.388 E16.18588
G1 X53.643 Y62.881 E16.21263
G1 X53.939 Y63.333 E16.23862
G1 X54.288 Y63.765 E16.26534
G1 X54.674 Y64.161 E16.29194
G1 X55.081 Y64.506 E16.31761
G1 X55.54 Y64.824 E16.34448
G1 X56.019 Y65.09 E16.37084
G1 X56.526 Y65.314 E16.39751
G1 X57.065 Y65.488 E16.42475
G1 X57.576 Y65.597 E16.44989
G1 X58.125 Y65.664 E16.4765
G1 X58.674 Y65.677 E16.50292
G1 X59.211 Y65.638 E16.52882
G1 X59.768 Y65.543 E16.55601
G1 X60.256 Y65.411 E16.58033
G1 X60.804 Y65.204 E16.60851
G1 X61.297 Y64.96 E16.63498
G1 X61.779 Y64.661 E16.66227
G1 X66.506 Y61.237 E16.94308
G1 X66.739 Y61.016 E16.95853
G1 X67.021 Y60.542 E16.98507
G1 X67.105 Y60.137 E17.00497
G1 X67.093 Y59.728 E17.02465
G1 X67.017 Y59.448 E17.03861
G1 X66.739 Y58.984 E17.06463
G1 X66.505 Y58.762 E17.08015
G1 X61.78 Y55.34 E17.36083
G1 X61.296 Y55.042 E17.38818
G1 X60.802 Y54.795 E17.41475
G1 X60.256 Y54.588 E17.44284
G1 X59.77 Y54.458 E17.46705
G1 X59.211 Y54.362 E17.49433
G1 X58.676 Y54.323 E17.52014
G1 X58.125 Y54.337 E17.54666
G1 X57.58 Y54.402 E17.57306
G1 X57.051 Y54.52 E17.59914
G1 X56.523 Y54.688 E17.6258
G1 X56.019 Y54.91 E17.65229
G1 X55.54 Y55.175 E17.67863
G1 X55.083 Y55.494 E17.70544
G1 X54.674 Y55.839 E17.73119
G1 X54.288 Y56.235 E17.75779
G1 X53.939 Y56.668 E17.78455
G1 X53.643 Y57.118 E17.81046
G1 X53.386 Y57.611 E17.83721
G1 X53.172 Y58.147 E17.86498
G1 X53.023 Y58.645 E17.88999
G1 X52.916 Y59.176 E17.91605
G1 X52.863 Y59.72 E17.94234
G0 F1620 X52.862 Y59.733
G0 X52.862 Y60.271
G0 F2880 X52.564 Y60.271
G0 X52.949 Y61.946
G0 X53.439 Y63.004
G0 X54.11 Y63.924
G0 X54.778 Y64.547
G0 X56.022 Y65.416
G0 X56.23 Y64.942
G1 F1800 X53.588 Y62.3 E18.1221
G1 X53.511 Y62.223
G0 F2880 X53.241 Y61.33
G1 F1800 X57.202 Y65.291 E18.3916
G0 F2880 X57.953 Y65.42
G1 F1800 X53.112 Y60.579 E18.72098
G0 F2880 X53.081 Y59.926
G1 F1800 X58.609 Y65.454 E19.0971
G0 F2880 X59.193 Y65.415
G1 F1800 X53.12 Y59.343 E19.51026
G0 F2880 X53.213 Y58.813
G1 F1800 X59.725 Y65.326 E19.95337
G0 F2880 X60.212 Y65.19
G1 F1800 X53.339 Y58.317 E20.421
G0 F2880 X53.517 Y57.873
G1 F1800 X60.664 Y65.02 E20.90727
G0 F2880 X61.084 Y64.818
G1 F1800 X53.716 Y57.45 E21.40858
G0 F2880 X53.945 Y57.057
G1 F1800 X61.477 Y64.588 E21.92102
G0 F2880 X61.848 Y64.337
G1 F1800 X54.201 Y56.69 E22.44131
G0 F2880 X54.482 Y56.349
G1 F1800 X62.209 Y64.075 E22.96702
G0 F2880 X62.57 Y63.814
G1 F1800 X54.789 Y56.033 E23.49643
G0 F2880 X55.124 Y55.746
G1 F1800 X62.931 Y63.553 E24.02761
G0 F2880 X63.292 Y63.292
G1 F1800 X55.483 Y55.483 E24.55892
G0 F2880 X55.867 Y55.245
G1 F1800 X63.653 Y63.03 E25.08864
G0 F2880 X64.013 Y62.769
G1 F1800 X56.28 Y55.035 E25.61482
G0 F2880 X56.721 Y54.855
G1 F1800 X64.375 Y62.508 E26.13555
G0 F2880 X64.735 Y62.246
G1 F1800 X57.201 Y54.712 E26.64816
G0 F2880 X57.718 Y54.607
G1 F1800 X65.096 Y61.984 E27.15012
G0 F2880 X65.457 Y61.724
G1 F1800 X58.286 Y54.553 E27.63802
G0 F2880 X58.918 Y54.562
G1 F1800 X65.818 Y61.462 E28.10749
G0 F2880 X66.178 Y61.2
M104 S210
G1 F1800 X59.637 Y54.659 E28.55254
G1 X59.56 Y54.582
G0 F2880 X59.636 Y54.134
G0 X60.712 Y54.442
G0 X60.527 Y54.927
G1 F1800 X66.519 Y60.919 E28.96022
G0 F2880 X66.766 Y60.543
G1 F1800 X61.975 Y55.753 E29.28617
G1 X61.898 Y55.676
G0 F2880 X62.193 Y55.27
G0 X64.539 Y56.97
G0 X64.234 Y57.389
G1 F1800 X66.888 Y60.043 E29.46674
G1 X66.965 Y60.12
G0 F2880 X67.365 Y60.159
G1 F2400 E26.96674
;MESH:NONMESH
G0 F90 X67.365 Y60.159 Z0.482
G0 F2880 X67.403 Y60.159
G0 X67.242 Y59.366
G0 X66.559 Y58.507
G0 X61.656 Y54.985
G0 X60.61 Y54.467
G0 X59.51 Y54.173
G0 X58.384 Y54.092
G0 X57.255 Y54.231
G0 X56.163 Y54.587
G0 X55.164 Y55.148
G0 X54.305 Y55.875
G0 X53.73 Y56.591
G0 X51.783 Y59.676
G0 X50.685 Y59.571
G0 X45.231 Y59.208
;TIME_ELAPSED:51.583149
;LAYER:1
M140 S40
M106 S255
;TYPE:SUPPORT
G1 F2400 E29.46674
G1 F2025 X44.775 Y60.615 E29.52599
G1 X45.231 Y62.021 E29.58521
G1 X46.43 Y62.894 E29.64463
G1 X47.912 Y62.894 E29.704
G1 X49.111 Y62.021 E29.76342
