;FLAVOR:Marlin
;TIME:1157
;Filament used: 1.03235m
;Layer height: 0.21875
;MINX:44.979
;MINY:46.549
;MINZ:0.263
;MAXX:75.374
;MAXY:70.333
;MAXZ:31.58
;Generated with Cura_SteamEngine main
M140 S45
M105
M190 S45
M104 S215
M105
M109 S215
M82 ;absolute extrusion mode
G21;(metric values)
G90;(absolute positioning)
M82;(set extruder to absolute mode)
M107;(start with the fan off)
G28;(Home the printer)
G92 E0;(Reset the extruder to 0)
G0 Z5 E5 F500;(Move up and prime the nozzle)
G0 X-1 Z0;(Move outside the printable area)
G1 Y60 E8 F500;(Draw a priming/wiping line to the rear)
G1 X-1;(Move a little closer to the print area)
G1 Y10 E16 F500;(draw more priming/wiping)
G1 E15 F250;(Small retract)
G92 E0;(Zero the extruder)
G92 E0
G92 E0
G1 F2400 E-2.5
;LAYER_COUNT:144
;LAYER:0
M107
G0 F2880 X47.412 Y54.487 Z0.263
;TYPE:SKIRT
G1 F2400 E0
G1 F1800 X47.516 Y54.452 E0.00528
G1 X47.566 Y54.488 E0.00824
G1 X47.566 Y54.6 E0.01363
G1 X47.516 Y54.636 E0.0166
G1 X47.412 Y54.601 E0.02188
G1 X47.412 Y54.52 E0.02577
G0 F1620 X47.412 Y54.487
G0 F2880 X46.932 Y54.544
G1 F1800 X47.038 Y54.215 E0.0424
G1 X47.317 Y54.012 E0.059
G1 X47.659 Y54.012 E0.07546
G1 X47.939 Y54.216 E0.09212
G1 X48.046 Y54.544 E0.10872
G1 X47.939 Y54.872 E0.12532
G1 X47.659 Y55.076 E0.14199
G1 X47.317 Y55.076 E0.15844
G1 X47.038 Y54.873 E0.17504
G1 X47.002 Y54.762 E0.18066
G0 F1620 X46.932 Y54.544
G0 F2880 X46.469 Y54.544
G1 F1800 X46.663 Y53.945 E0.21095
G1 X47.174 Y53.572 E0.24139
G1 X47.802 Y53.572 E0.2716
G1 X48.315 Y53.946 E0.30214
G1 X48.51 Y54.544 E0.3324
G1 X48.315 Y55.142 E0.36266
G1 X47.802 Y55.516 E0.39321
G1 X47.174 Y55.516 E0.42342
G1 X46.663 Y55.143 E0.45386
G1 X46.598 Y54.943 E0.46398
G0 F1620 X46.469 Y54.544
G0 F2880 X46.006 Y54.544
G1 F1800 X46.288 Y53.673 E0.50802
G1 X47.03 Y53.132 E0.5522
G1 X47.946 Y53.132 E0.59627
G1 X48.688 Y53.673 E0.64045
G1 X48.972 Y54.544 E0.68453
G1 X48.688 Y55.415 E0.7286
G1 X47.946 Y55.956 E0.77278
G1 X47.03 Y55.956 E0.81685
G1 X46.288 Y55.415 E0.86103
G1 X46.176 Y55.069 E0.87853
G0 F1620 X46.006 Y54.544
G0 F2880 X45.544 Y54.544
G1 F1800 X45.914 Y53.401 E0.93633
G1 X46.887 Y52.692 E0.99425
G1 X48.089 Y52.692 E1.05208
G1 X49.062 Y53.401 E1.11
G1 X49.435 Y54.544 E1.16784
G1 X49.062 Y55.687 E1.22569
G1 X48.089 Y56.396 E1.28361
G1 X46.887 Y56.396 E1.34144
G1 X45.914 Y55.687 E1.39936
G1 X45.714 Y55.069 E1.43061
G0 F1620 X45.544 Y54.544
G0 F2880 X45.081 Y54.544
G1 F1800 X45.539 Y53.131 E1.50207
G1 X46.744 Y52.252 E1.57383
G1 X48.232 Y52.252 E1.64542
G1 X49.437 Y53.131 E1.71718
G1 X49.898 Y54.544 E1.78869
G1 X49.437 Y55.957 E1.86019
G1 X48.232 Y56.836 E1.93195
G1 X46.744 Y56.836 E2.00354
G1 X45.539 Y55.957 E2.0753
G1 X45.251 Y55.069 E2.12021
G0 F1620 X45.081 Y54.544
G1 F2400 E-0.37979
G0 F2880 X55.749 Y49.588
G0 X57.212 Y49.189
G0 X63.878 Y48.748
G1 F2400 E2.12021
G1 F1800 X64.307 Y47.425 E2.18713
G1 X65.436 Y46.602 E2.25434
G1 X66.96 Y46.602 E2.32766
G1 X70.979 Y49.481 E2.56551
G1 X73.153 Y51.158 E2.69761
G1 X73.339 Y51.731 E2.72659
G1 X73.419 Y51.841 E2.73314
G1 X73.982 Y52.251 E2.76664
G1 X75.285 Y56.17 E2.96534
G1 X74.418 Y58.929 E3.10448
G1 X73.271 Y59.764 E3.17273
G1 X71.853 Y59.764 E3.24095
G1 X70.705 Y58.928 E3.30928
G1 X70.264 Y57.564 E3.37825
G1 X70.455 Y56.302 E3.43965
G1 X69.757 Y54.314 E3.54102
G1 X69.691 Y54.219 E3.54659
G1 X67.425 Y52.299 E3.68948
G1 X64.275 Y49.973 E3.87787
G1 X64.048 Y49.273 E3.91327
G0 F1620 X63.878 Y48.748
G0 F2880 X64.341 Y48.748
G1 F1800 X64.681 Y47.696 E3.96646
G1 X65.58 Y47.042 E4.01995
G1 X66.819 Y47.042 E4.07955
G1 X70.711 Y49.83 E4.30989
G1 X72.776 Y51.424 E4.43539
G1 X72.92 Y51.867 E4.4578
G1 X73.056 Y52.121 E4.47166
G1 X73.61 Y52.525 E4.50465
G1 X74.822 Y56.173 E4.68959
G1 X74.041 Y58.659 E4.81496
G1 X73.127 Y59.324 E4.86934
G1 X71.997 Y59.324 E4.92371
G1 X71.08 Y58.657 E4.97826
G1 X70.714 Y57.527 E5.03541
G1 X70.882 Y56.422 E5.08918
G1 X70.852 Y56.104 E5.10455
G1 X70.172 Y54.168 E5.20327
G1 X70.044 Y53.941 E5.2158
G1 X67.721 Y51.972 E5.36231
G1 X64.651 Y49.704 E5.54595
G1 X64.511 Y49.273 E5.56775
G0 F1620 X64.341 Y48.748
G0 F2880 X64.803 Y48.748
G1 F1800 X65.056 Y47.967 E5.60724
G1 X65.722 Y47.482 E5.64688
G1 X66.678 Y47.482 E5.69288
G1 X70.449 Y50.184 E5.91607
G1 X72.4 Y51.69 E6.03464
G1 X72.63 Y52.27 E6.06466
G1 X72.901 Y52.552 E6.08348
G1 X73.236 Y52.796 E6.10342
G1 X74.36 Y56.178 E6.27488
G1 X73.666 Y58.389 E6.38637
G1 X72.985 Y58.884 E6.42687
G1 X72.139 Y58.884 E6.46757
G1 X71.455 Y58.386 E6.50828
G1 X71.165 Y57.489 E6.55363
G1 X71.317 Y56.488 E6.60235
G1 X71.322 Y56.115 E6.62029
G1 X70.587 Y54.022 E6.72702
G1 X70.452 Y53.759 E6.74124
G1 X70.26 Y53.548 E6.75496
G1 X67.947 Y51.591 E6.90073
G1 X65.025 Y49.434 E7.07547
G1 X64.972 Y49.273 E7.08362
G0 F1620 X64.803 Y48.748
G0 F2880 X65.266 Y48.748
G1 F1800 X65.431 Y48.239 E7.10936
G1 X65.866 Y47.922 E7.13526
G1 X66.536 Y47.922 E7.16749
G1 X70.193 Y50.542 E7.38393
G1 X72.023 Y51.954 E7.49513
G1 X72.229 Y52.458 E7.52133
G1 X72.443 Y52.735 E7.53817
G1 X72.864 Y53.069 E7.56402
G1 X73.898 Y56.181 E7.72179
G1 X73.289 Y58.118 E7.81948
G1 X72.841 Y58.444 E7.84613
G1 X72.283 Y58.444 E7.87298
G1 X71.829 Y58.114 E7.89998
G1 X71.615 Y57.454 E7.93336
G1 X71.752 Y56.554 E7.97716
G1 X71.764 Y56.204 E7.99401
G1 X71.682 Y55.813 E8.01323
G1 X71.002 Y53.877 E8.11195
G1 X70.849 Y53.561 E8.12884
G1 X70.545 Y53.212 E8.15111
G1 X68.29 Y51.301 E8.29332
G1 X65.493 Y49.232 E8.4607
G0 F1620 X65.401 Y49.164
G0 X65.266 Y48.748
G0 F2880 X65.729 Y48.748
G1 F1800 X65.806 Y48.511 E8.47269
G1 X66.01 Y48.362 E8.48484
G1 X66.394 Y48.362 E8.50332
G1 X69.914 Y50.883 E8.71162
G1 X71.647 Y52.221 E8.81695
G1 X71.825 Y52.639 E8.83881
G1 X72.055 Y52.963 E8.85793
G1 X72.49 Y53.342 E8.88569
G1 X73.435 Y56.185 E9.02982
G1 X72.913 Y57.848 E9.11368
G1 X72.698 Y58.004 E9.12646
G1 X72.426 Y58.004 E9.13955
G1 X72.204 Y57.842 E9.15277
G1 X72.066 Y57.416 E9.17431
G1 X72.187 Y56.62 E9.21305
G1 X72.206 Y56.223 E9.23217
G1 X72.097 Y55.667 E9.25943
G1 X71.417 Y53.731 E9.35815
G1 X71.248 Y53.371 E9.37728
G1 X70.967 Y52.993 E9.39994
G1 X68.574 Y50.965 E9.55085
G1 X66.096 Y49.131 E9.69917
G0 F1620 X65.776 Y48.894
G0 X65.729 Y48.748
G1 F2400 E7.19917
G0 F2880 X69.149 Y50.875
G1 F2400 E9.69917
G1 F1800 X69.657 Y51.24 E9.72927
G1 X71.281 Y52.493 E9.82795
G1 X71.42 Y52.815 E9.84483
G1 X71.663 Y53.181 E9.86596
G1 X72.118 Y53.614 E9.89618
G1 X72.973 Y56.188 E10.02667
G1 X72.558 Y57.509 E10.09329
G1 X72.516 Y57.381 E10.09977
G1 X72.622 Y56.686 E10.13359
G1 X72.648 Y56.248 E10.1547
G1 X72.583 Y55.724 E10.18011
G1 X71.832 Y53.585 E10.28917
G1 X71.65 Y53.185 E10.31032
G1 X71.398 Y52.825 E10.33146
G1 X71.114 Y52.541 E10.35078
G1 X69.57 Y51.232 E10.44817
G0 F1620 X69.149 Y50.875
G1 F2400 E7.94817
;MESH:plug-sensor-rod.stl
G0 F2880 X62.262 Y55.874
G0 X61.099 Y55.752
G0 X59.888 Y54.071
G0 X55.164 Y55.139
;TYPE:WALL-INNER
G1 F2400 E10.44817
G1 F1800 X55.372 Y54.667 E10.47298
G1 X55.552 Y54.456 E10.48633
G1 X56.004 Y54.168 E10.51211
G1 X59.036 Y53.183 E10.66549
G1 X59.527 Y53.195 E10.68912
G1 X59.824 Y53.261 E10.70375
G1 X60.086 Y53.405 E10.71814
G1 X60.405 Y53.695 E10.73888
G1 X62.169 Y56.12 E10.88315
G1 X62.342 Y56.48 E10.90237
G1 X62.436 Y56.964 E10.92609
G1 X62.42 Y57.167 E10.93588
G1 X62.304 Y57.52 E10.95376
G1 X62.17 Y57.765 E10.96719
G1 X60.406 Y60.191 E11.1115
G1 X60.232 Y60.362 E11.12324
G1 X59.761 Y60.644 E11.14965
G1 X59.494 Y60.708 E11.16286
G1 X58.948 Y60.673 E11.18918
G1 X56.011 Y59.719 E11.33775
G1 X55.809 Y59.613 E11.34873
G1 X55.524 Y59.387 E11.36623
G1 X55.248 Y59.015 E11.38851
G1 X55.114 Y58.479 E11.41509
G1 X55.114 Y55.687 E11.54942
G0 F1620 X55.114 Y55.407
G0 X55.164 Y55.139
G1 F2400 E9.04942
G0 F2880 X52.934 Y55.187
G0 X52.503 Y56.05
G1 F2400 E11.54942
G1 F1800 X52.445 Y56.654 E11.57861
G1 X52.445 Y57.233 E11.60647
G1 X52.502 Y57.829 E11.63527
G1 X52.615 Y58.4 E11.66328
G1 X52.778 Y58.949 E11.69083
G1 X53.007 Y59.512 E11.72007
G1 X53.281 Y60.035 E11.74848
G1 X53.6 Y60.523 E11.77653
G1 X53.969 Y60.981 E11.80482
G1 X54.388 Y61.41 E11.83367
G1 X54.836 Y61.789 E11.8619
G1 X55.316 Y62.119 E11.88993
G1 X55.834 Y62.408 E11.91847
G1 X56.376 Y62.646 E11.94695
G1 X56.942 Y62.829 E11.97556
G1 X57.507 Y62.952 E12.00338
G1 X58.095 Y63.023 E12.03188
G1 X58.685 Y63.039 E12.06027
G1 X59.264 Y62.996 E12.08821
G1 X59.858 Y62.895 E12.1172
G1 X60.398 Y62.748 E12.14412
G1 X60.972 Y62.53 E12.17366
G1 X61.501 Y62.269 E12.20204
G1 X62.014 Y61.951 E12.23108
G1 X66.775 Y58.502 E12.51392
G1 X67.054 Y58.236 E12.53247
G1 X67.261 Y57.951 E12.54941
G1 X67.414 Y57.634 E12.56635
G1 X67.523 Y57.118 E12.59172
G1 X67.507 Y56.593 E12.61699
G1 X67.411 Y56.246 E12.63431
G1 X67.263 Y55.936 E12.65084
G1 X67.051 Y55.646 E12.66812
G1 X66.775 Y55.383 E12.68647
G1 X62.014 Y51.934 E12.96931
G1 X61.5 Y51.615 E12.99841
G1 X60.97 Y51.352 E13.02688
G1 X60.4 Y51.135 E13.05622
G1 X59.86 Y50.991 E13.08311
G1 X59.263 Y50.889 E13.11225
G1 X58.685 Y50.846 E13.14013
G1 X58.095 Y50.861 E13.16853
G1 X57.51 Y50.931 E13.19687
G1 X56.943 Y51.058 E13.22483
G1 X56.374 Y51.24 E13.25357
G1 X55.833 Y51.477 E13.28198
G1 X55.321 Y51.761 E13.31015
G1 X54.826 Y52.104 E13.33913
G1 X54.387 Y52.473 E13.36672
G1 X53.974 Y52.898 E13.39523
G1 X53.599 Y53.362 E13.42393
G1 X53.28 Y53.85 E13.45198
G1 X53.007 Y54.373 E13.48036
G1 X52.779 Y54.937 E13.50963
G1 X52.615 Y55.486 E13.5372
G1 X52.61 Y55.509 E13.53833
G0 F1620 X52.503 Y56.05
G0 F2880 X52.067 Y55.986
G1 F1800 X52.005 Y56.632 E13.56955
G1 X52.005 Y57.255 E13.59953
G1 X52.066 Y57.893 E13.63036
G1 X52.187 Y58.506 E13.66042
G1 X52.363 Y59.095 E13.69
G1 X52.607 Y59.697 E13.72125
G1 X52.901 Y60.258 E13.75172
G1 X53.244 Y60.782 E13.78185
G1 X53.639 Y61.274 E13.81221
G1 X54.088 Y61.733 E13.8431
G1 X54.568 Y62.139 E13.87334
G1 X55.083 Y62.494 E13.90344
G1 X55.638 Y62.803 E13.934
G1 X56.22 Y63.058 E13.96457
G1 X56.827 Y63.254 E13.99526
G1 X57.434 Y63.387 E14.02515
G1 X58.063 Y63.463 E14.05563
G1 X58.695 Y63.479 E14.08605
G1 X59.317 Y63.433 E14.11606
G1 X59.953 Y63.325 E14.14709
G1 X60.534 Y63.167 E14.17606
G1 X61.148 Y62.934 E14.20766
G1 X61.715 Y62.655 E14.23806
G1 X62.259 Y62.317 E14.26887
G1 X67.057 Y58.841 E14.55392
G1 X67.387 Y58.527 E14.57583
G1 X67.64 Y58.178 E14.59657
G1 X67.828 Y57.788 E14.6174
G1 X67.942 Y57.372 E14.63815
G1 X67.961 Y57.159 E14.64844
G1 X67.981 Y56.941 E14.65897
G1 X67.942 Y56.514 E14.6796
G1 X67.825 Y56.09 E14.70076
G1 X67.642 Y55.71 E14.72106
G1 X67.384 Y55.355 E14.74217
G1 X67.057 Y55.044 E14.76388
G1 X62.259 Y51.568 E15.04893
G1 X61.714 Y51.23 E15.07978
G1 X61.147 Y50.948 E15.11025
G1 X60.535 Y50.716 E15.14174
G1 X59.954 Y50.56 E15.17068
G1 X59.316 Y50.451 E15.20182
G1 X58.695 Y50.405 E15.23178
G1 X58.063 Y50.422 E15.26219
G1 X57.435 Y50.497 E15.29262
G1 X56.828 Y50.633 E15.32255
G1 X56.219 Y50.828 E15.35331
G1 X55.638 Y51.082 E15.38382
G1 X55.088 Y51.387 E15.41408
G1 X54.558 Y51.754 E15.44509
G1 X54.087 Y52.151 E15.47473
G1 X53.644 Y52.606 E15.50528
G1 X53.243 Y53.103 E15.536
G1 X52.9 Y53.627 E15.56614
G1 X52.607 Y54.188 E15.59659
G1 X52.363 Y54.791 E15.62788
G1 X52.187 Y55.38 E15.65746
G1 X52.174 Y55.444 E15.6606
G0 F1620 X52.067 Y55.986
G1 F2400 E13.1606
G0 F2880 X52.323 Y56.026
G0 X52.934 Y55.187
G0 X54.914 Y55.394
G1 F2400 E15.6606
G0 F2880 X55.554 Y55.371
G1 F1800 X55.74 Y54.908 E15.6846
G1 X55.848 Y54.782 E15.69259
G1 X56.169 Y54.576 E15.71094
G1 X59.108 Y53.622 E15.8596
G1 X59.668 Y53.673 E15.88665
G1 X59.825 Y53.759 E15.89526
G1 X60.085 Y53.999 E15.91229
G1 X61.813 Y56.379 E16.05379
G1 X61.917 Y56.595 E16.06532
G1 X61.996 Y56.968 E16.08367
G1 X61.986 Y57.09 E16.08956
G1 X61.814 Y57.507 E16.11126
G1 X60.064 Y59.914 E16.25443
G1 X59.715 Y60.178 E16.27548
G1 X59.544 Y60.252 E16.28445
G1 X59.366 Y60.276 E16.29309
G1 X59.055 Y60.246 E16.30812
G1 X56.097 Y59.285 E16.45776
G1 X55.736 Y58.974 E16.48068
G1 X55.649 Y58.833 E16.48865
G1 X55.554 Y58.452 E16.50754
G1 X55.554 Y55.923 E16.62921
G0 F1620 X55.554 Y55.371
G0 F2880 X55.293 Y55.371
G0 X55.371 Y58.828
G0 X56.05 Y58.651
;TYPE:WALL-OUTER
G1 F1800 X55.993 Y58.426 E16.64038
G1 X55.997 Y55.427 E16.78467
G1 X56.108 Y55.15 E16.79902
G1 X56.334 Y54.984 E16.81251
G1 X59.162 Y54.066 E16.95556
G1 X59.511 Y54.085 E16.97238
G1 X59.713 Y54.236 E16.98451
G1 X61.457 Y56.637 E17.12728
G1 X61.556 Y56.972 E17.14409
G1 X61.458 Y57.248 E17.15818
G1 X59.706 Y59.659 E17.30156
G1 X59.428 Y59.827 E17.31719
G1 X59.162 Y59.819 E17.32999
G1 X56.497 Y58.953 E17.46481
G0 F1620 X56.313 Y58.894
G0 X56.05 Y58.651
G0 F2880 X56.001 Y58.458
G1 F2400 E14.96481
G0 F2880 X55.321 Y58.636
G0 X54.913 Y56.026
G0 X52.796 Y55.607
G1 F2400 E17.46481
G0 F2880 X51.631 Y55.922
G1 F1800 X51.565 Y56.611 E17.49811
G1 X51.565 Y57.276 E17.5301
G1 X51.63 Y57.957 E17.56301
G1 X51.759 Y58.612 E17.59513
G1 X51.947 Y59.241 E17.62672
G1 X52.207 Y59.882 E17.66
G1 X52.521 Y60.482 E17.69258
G1 X52.888 Y61.041 E17.72475
G1 X53.309 Y61.566 E17.75713
G1 X53.788 Y62.055 E17.79006
G1 X54.3 Y62.489 E17.82235
G1 X54.851 Y62.868 E17.85452
G1 X55.442 Y63.198 E17.88709
G1 X56.064 Y63.47 E17.91975
G1 X56.712 Y63.68 E17.95252
G1 X57.36 Y63.821 E17.98443
G1 X58.031 Y63.903 E18.01695
G1 X58.706 Y63.919 E18.04943
G1 X59.37 Y63.871 E18.08146
G1 X60.048 Y63.755 E18.11456
G1 X60.67 Y63.586 E18.14557
G1 X61.324 Y63.338 E18.17922
G1 X61.929 Y63.04 E18.21166
G1 X62.505 Y62.683 E18.24427
G1 X67.339 Y59.18 E18.53148
G1 X67.719 Y58.818 E18.55673
G1 X68.02 Y58.404 E18.58135
G1 X68.242 Y57.943 E18.60597
G1 X68.376 Y57.451 E18.6305
G1 X68.399 Y57.199 E18.64268
G1 X68.423 Y56.941 E18.65514
G1 X68.376 Y56.434 E18.67964
G1 X68.239 Y55.935 E18.70454
G1 X68.021 Y55.483 E18.72868
G1 X67.716 Y55.064 E18.75361
G1 X67.339 Y54.705 E18.77866
G1 X62.505 Y51.202 E19.06587
G1 X61.928 Y50.845 E19.09851
G1 X61.323 Y50.544 E19.13103
G1 X60.671 Y50.296 E19.16459
G1 X60.048 Y50.13 E19.1956
G1 X59.37 Y50.014 E19.2287
G1 X58.706 Y49.965 E19.26073
G1 X58.031 Y49.982 E19.29322
G1 X57.361 Y50.063 E19.32568
G1 X56.712 Y50.208 E19.35768
G1 X56.063 Y50.416 E19.39047
G1 X55.442 Y50.687 E19.42306
G1 X54.856 Y51.013 E19.45533
G1 X54.29 Y51.404 E19.48842
G1 X53.787 Y51.829 E19.5201
G1 X53.314 Y52.314 E19.5527
G1 X52.887 Y52.844 E19.58544
G1 X52.52 Y53.403 E19.61761
G1 X52.207 Y54.003 E19.65017
G1 X51.947 Y54.645 E19.6835
G1 X51.759 Y55.274 E19.71508
G1 X51.738 Y55.381 E19.72033
G0 F1620 X51.631 Y55.922
G0 F2880 X51.612 Y56.121
G0 X52.307 Y56.189
G0 X52.863 Y56.675
;TYPE:SKIN
G1 F1800 X52.863 Y57.214 E19.74626
G1 X52.916 Y57.766 E19.77294
G1 X53.023 Y58.298 E19.79905
G1 X53.171 Y58.796 E19.82404
G1 X53.388 Y59.335 E19.85199
G1 X53.641 Y59.821 E19.87835
G1 X53.939 Y60.275 E19.90448
G1 X54.282 Y60.704 E19.93091
G1 X54.672 Y61.103 E19.95775
G1 X55.09 Y61.455 E19.98404
G1 X55.536 Y61.762 E20.01009
G1 X56.022 Y62.033 E20.03686
G1 X56.523 Y62.253 E20.06319
G1 X57.052 Y62.423 E20.08992
G1 X57.58 Y62.539 E20.11593
G1 X58.126 Y62.606 E20.14239
G1 X58.673 Y62.619 E20.16872
G1 X59.212 Y62.58 E20.19472
G1 X59.767 Y62.486 E20.2218
G1 X60.255 Y62.352 E20.24615
G1 X60.805 Y62.146 E20.2744
G1 X61.337 Y61.88 E20.30302
G1 X61.779 Y61.603 E20.32811
G1 X66.506 Y58.179 E20.60893
G1 X66.739 Y57.958 E20.62438
G1 X67.021 Y57.484 E20.65091
G1 X67.106 Y57.075 E20.67101
G1 X67.094 Y56.667 E20.69065
G1 X67.018 Y56.392 E20.70437
G1 X66.736 Y55.924 E20.73066
G1 X66.505 Y55.705 E20.74598
G1 X61.749 Y52.262 E21.02846
G1 X61.298 Y51.984 E21.05394
G1 X60.761 Y51.719 E21.08275
G1 X60.274 Y51.535 E21.1078
G1 X59.771 Y51.402 E21.13283
G1 X59.211 Y51.304 E21.16018
G1 X58.671 Y51.265 E21.18623
G1 X58.125 Y51.279 E21.21251
G1 X57.583 Y51.344 E21.23877
G1 X57.053 Y51.464 E21.26492
G1 X56.52 Y51.633 E21.29182
G1 X56.019 Y51.853 E21.31814
G1 X55.542 Y52.116 E21.34435
G1 X55.082 Y52.438 E21.37136
G1 X54.673 Y52.78 E21.39701
G1 X54.288 Y53.175 E21.42355
G1 X53.789 Y53.791 E21.46169
G1 X53.387 Y54.55 E21.50301
G1 X53.174 Y55.075 E21.53027
G1 X53.023 Y55.587 E21.55595
G1 X52.918 Y56.112 E21.58171
G1 X52.916 Y56.125 E21.58234
G0 F1620 X52.863 Y56.675
G1 F2400 E19.08234
G0 F2880 X52.567 Y56.642
G0 X54.913 Y57.223
G0 X54.995 Y58.484
G1 F2400 E21.58234
G0 F2880 X54.697 Y58.499
G1 F1800 X54.701 Y55.215 E21.74034
G1 X55.022 Y54.437 E21.78083
G1 X55.273 Y54.144 E21.79939
