;FLAVOR:Marlin
;TIME:108
;Filament used: 0.0544163m
;Layer height: 0.21875
;MINX:51.265
;MINY:56.22
;MINZ:0.263
;MAXX:68.725
;MAXY:63.78
;MAXZ:3.986
;Generated with Cura_SteamEngine main
M140 S45
M105
M190 S45
M104 S215
M105
M109 S215
M82 ;absolute extrusion mode
G21;(metric values)
G90;(absolute positioning)
M82;(set extruder to absolute mode)
M107;(start with the fan off)
G28;(Home the printer)
G92 E0;(Reset the extruder to 0)
G0 Z5 E5 F500;(Move up and prime the nozzle)
G0 X-1 Z0;(Move outside the printable area)
G1 Y60 E8 F500;(Draw a priming/wiping line to the rear)
G1 X-1;(Move a little closer to the print area)
G1 Y10 E16 F500;(draw more priming/wiping)
G1 E15 F250;(Small retract)
G92 E0;(Zero the extruder)
G92 E0
G92 E0
G1 F2400 E-2.5
;LAYER_COUNT:18
;LAYER:0
M107
;MESH:fig-base.stl
G0 F2880 X55.187 Y58.132 Z0.263
;TYPE:WALL-INNER
G1 F2400 E0
G1 F1800 X55.266 Y57.93 E0.01044
G1 X55.686 Y57.405 E0.04278
G1 X53.023 Y57.4 E0.1709
G1 X52.779 Y57.994 E0.2018
G1 X52.615 Y58.542 E0.22932
G1 X52.502 Y59.113 E0.25732
G1 X52.445 Y59.711 E0.28622
G1 X52.445 Y60.291 E0.31412
G1 X52.502 Y60.887 E0.34293
G1 X52.615 Y61.458 E0.37093
G1 X52.779 Y62.006 E0.39845
G1 X53.023 Y62.6 E0.42935
G1 X55.715 Y62.6 E0.55886
G1 X55.558 Y62.473 E0.56858
G1 X55.185 Y61.891 E0.60184
G1 X55.113 Y61.469 E0.62243
G1 X55.113 Y58.678 E0.75671
G0 F1620 X55.113 Y58.532
G0 X55.187 Y58.132
G0 F2880 X59.155 Y56.874
G0 X62.342 Y59.539
G1 F1800 X62.427 Y59.894 E0.77427
G1 X62.429 Y60.152 E0.78668
G1 X62.36 Y60.435 E0.8007
G1 X62.17 Y60.823 E0.82148
G1 X60.88 Y62.599 E0.92709
G1 X65.342 Y62.6 E1.14176
G1 X66.775 Y61.56 E1.22695
G1 X67.054 Y61.294 E1.24549
G1 X67.261 Y61.009 E1.26244
G1 X67.414 Y60.692 E1.27937
G1 X67.522 Y60.177 E1.30469
G1 X67.507 Y59.65 E1.33005
G1 X67.411 Y59.303 E1.34737
G1 X67.261 Y58.991 E1.36403
G1 X67.054 Y58.706 E1.38098
G1 X66.775 Y58.44 E1.39952
G1 X65.342 Y57.4 E1.48471
G1 X60.879 Y57.401 E1.69943
G1 X62.08 Y59.055 E1.79777
G0 F1620 X62.169 Y59.178
G0 X62.342 Y59.539
G0 F2880 X61.99 Y59.949
G1 F1800 X61.95 Y60.274 E1.81352
G1 X61.814 Y60.564 E1.82893
G1 X60.086 Y62.944 E1.97043
G1 X59.984 Y63.039 E1.97714
G1 X65.484 Y63.04 E2.24175
G1 X67.057 Y61.899 E2.33524
G1 X67.387 Y61.585 E2.35715
G1 X67.64 Y61.236 E2.37789
G1 X67.828 Y60.846 E2.39872
G1 X67.941 Y60.43 E2.41946
G1 X67.96 Y60.218 E2.4297
G1 X67.981 Y59.999 E2.44029
G1 X67.941 Y59.571 E2.46097
G1 X67.825 Y59.147 E2.48212
G1 X67.641 Y58.764 E2.50256
G1 X67.387 Y58.415 E2.52333
G1 X67.057 Y58.101 E2.54524
G1 X65.484 Y56.96 E2.63873
G1 X60.016 Y56.961 E2.9018
G1 X61.808 Y59.43 E3.04858
G0 F1620 X61.813 Y59.437
G0 X61.917 Y59.653
G0 X61.99 Y59.949
G0 F2880 X62.245 Y59.883
G0 X59.872 Y62.893
G0 X55.361 Y61.847
G0 X55.611 Y61.782
G1 F1800 X55.553 Y61.469 E3.06389
G1 X55.553 Y58.532 E3.20519
G1 X55.676 Y58.089 E3.22731
G1 X55.929 Y57.776 E3.24668
G1 X56.212 Y57.619 E3.26225
G1 X58.234 Y56.962 E3.36453
G1 X52.757 Y56.96 E3.62803
G1 X52.605 Y57.249 E3.64374
G1 X52.363 Y57.848 E3.67483
G1 X52.187 Y58.436 E3.70436
G1 X52.066 Y59.049 E3.73442
G1 X52.005 Y59.69 E3.76539
G1 X52.005 Y60.312 E3.79532
G1 X52.066 Y60.951 E3.8262
G1 X52.187 Y61.564 E3.85626
G1 X52.363 Y62.152 E3.88579
G1 X52.605 Y62.751 E3.91687
G1 X52.757 Y63.04 E3.93258
G1 X58.233 Y63.038 E4.19604
G1 X56.216 Y62.383 E4.29807
G1 X55.95 Y62.207 E4.31341
G0 F1620 X55.835 Y62.131
G0 X55.611 Y61.782
G0 F2880 X55.361 Y61.847
G0 X55.355 Y58.719
G0 X56.086 Y58.249
;TYPE:WALL-OUTER
G1 F1800 X56.171 Y58.144 E4.31991
G1 X56.348 Y58.037 E4.32986
G1 F1767.9 X56.912 Y57.846 E4.35903
G1 F1706.9 X57.476 Y57.654 E4.38926
G1 F1646.6 X58.041 Y57.463 E4.42063
G1 F1590.4 X58.605 Y57.271 E4.45307
G1 F1540.9 X59.17 Y57.08 E4.48659
G1 F1514.3 X59.447 Y57.087 E4.50243
G1 F1643.2 X59.729 Y57.315 E4.52154
G1 F1800 X61.457 Y59.695 E4.66305
G1 X61.556 Y60.03 E4.67985
G1 X61.458 Y60.306 E4.69394
G1 X59.73 Y62.685 E4.83541
G1 F1653.4 X59.415 Y62.928 E4.85624
G1 F1529 X59.201 Y62.922 E4.86837
G1 F1549.9 X58.727 Y62.763 E4.8963
G1 F1590.4 X58.252 Y62.603 E4.9236
G1 F1633 X57.777 Y62.443 E4.95018
G1 F1678 X57.302 Y62.284 E4.97603
G1 F1725.5 X56.827 Y62.124 E5.00118
G1 F1775.8 X56.352 Y61.964 E5.02563
G1 F1800 X56.112 Y61.789 E5.03992
G1 X56.037 Y61.672 E5.0466
G1 X55.993 Y61.469 E5.0566
G1 X55.993 Y58.532 E5.1979
G1 X56.004 Y58.5 E5.19952
G0 F1620 X56.086 Y58.249
G0 F2880 X56.171 Y58.144
G0 X56.226 Y58.111
G0 X55.848 Y57.52
G0 X59.461 Y56.82
G0 X59.461 Y56.563
G1 F1531.9 X58.902 Y56.556 E5.23113
G1 F1574.6 X58.343 Y56.549 E5.26187
G1 F1619.6 X57.784 Y56.542 E5.29177
G1 F1667.4 X57.225 Y56.535 E5.3208
G1 F1718 X56.666 Y56.528 E5.34898
G1 F1771.8 X56.107 Y56.52 E5.37631
G1 F1800 X52.491 Y56.52 E5.55027
G1 X52.205 Y57.064 E5.57984
G1 X51.947 Y57.702 E5.61295
G1 X51.759 Y58.33 E5.64449
G1 X51.63 Y58.985 E5.67661
G1 X51.565 Y59.669 E5.70967
G1 X51.565 Y60.333 E5.74161
G1 X51.63 Y61.015 E5.77457
G1 X51.759 Y61.67 E5.80669
G1 X51.947 Y62.298 E5.83823
G1 X52.205 Y62.936 E5.87134
G1 X52.491 Y63.48 E5.90091
G1 X56.112 Y63.48 E6.07511
G1 F1779.8 X56.7 Y63.475 E6.10373
G1 F1736.8 X57.288 Y63.469 E6.13305
G1 F1695.9 X57.876 Y63.464 E6.16307
G1 F1660.4 X58.464 Y63.458 E6.19374
G1 F1623 X59.052 Y63.452 E6.22512
G1 F1695.9 X59.889 Y63.48 E6.26788
G1 F1800 X65.627 Y63.48 E6.54394
G1 X67.339 Y62.238 E6.6457
G1 X67.719 Y61.876 E6.67095
G1 X68.02 Y61.462 E6.69557
G1 X68.242 Y61.001 E6.72019
G1 X68.376 Y60.509 E6.74472
G1 X68.398 Y60.258 E6.75685
G1 X68.423 Y59.999 E6.76937
G1 X68.376 Y59.491 E6.79391
G1 X68.239 Y58.992 E6.81881
G1 X68.02 Y58.538 E6.84306
G1 X67.719 Y58.124 E6.86768
G1 X67.339 Y57.762 E6.89293
G1 X65.627 Y56.52 E6.99469
G1 X59.957 Y56.521 E7.26748
G1 F1643.2 X59.461 Y56.563 E7.29371
G0 F2880 X59.261 Y56.561
G0 X59.261 Y56.82
G0 X62.549 Y60.159
G0 X62.847 Y60.175
;TYPE:SKIN
G1 F1800 X62.744 Y60.604 E7.31494
G1 X62.509 Y61.068 E7.33996
G1 X61.699 Y62.181 E7.40619
G1 X65.206 Y62.182 E7.57491
G1 X66.505 Y61.239 E7.65214
G1 X66.739 Y61.016 E7.66769
G1 X67.021 Y60.542 E7.69423
G1 X67.105 Y60.137 E7.71413
G1 X67.093 Y59.728 E7.73381
G1 X67.017 Y59.448 E7.74777
G1 X66.74 Y58.986 E7.77369
G1 X66.505 Y58.761 E7.78934
G1 X65.206 Y57.819 E7.86654
G1 X61.697 Y57.819 E8.03536
G1 X62.524 Y58.96 E8.10316
G1 X62.735 Y59.397 E8.1265
G1 X62.791 Y59.629 E8.13798
G0 F1620 X62.842 Y59.84
G0 X62.847 Y60.175
G0 F2880 X62.549 Y60.159
G0 X61.904 Y61.395
G0 X62.32 Y61.698
G1 F1800 X62.583 Y61.96 E8.15584
G0 F2880 X62.583 Y61.338
G1 F1800 X63.205 Y61.96 E8.19816
G0 F2880 X63.828 Y61.961
G1 F1800 X62.814 Y60.947 E8.26716
G0 F2880 X62.991 Y60.502
G1 F1800 X64.45 Y61.961 E8.36643
G0 F2880 X65.072 Y61.961
G1 F1800 X63.059 Y59.948 E8.50339
G0 F2880 X62.837 Y59.103
G1 F1800 X65.458 Y61.725 E8.68175
G0 F2880 X65.819 Y61.463
G1 F1800 X62.395 Y58.039 E8.91472
G0 F2880 X63.017 Y58.039
G1 F1800 X66.18 Y61.202 E9.12992
G0 F2880 X66.519 Y60.919
G1 F1800 X63.639 Y58.039 E9.32588
G0 F2880 X64.261 Y58.039
G1 F1800 X66.766 Y60.543 E9.49628
G0 F2880 X66.888 Y60.043
G1 F1800 X64.884 Y58.039 E9.63263
G1 X64.807 Y57.962
G0 F2880 X64.807 Y57.52
G0 X59.155 Y56.874
G0 X52.921 Y57.256
G0 X52.387 Y58.559
G0 X52.565 Y60.271
G0 X52.863 Y60.271
M104 S210
G1 F1800 X52.916 Y60.824 E9.65936
G1 X53.023 Y61.356 E9.68546
G1 X53.182 Y61.888 E9.71218
G1 X53.3 Y62.182 E9.72742
G1 X54.889 Y62.181 E9.80387
G1 X54.772 Y61.966 E9.81564
G1 X54.697 Y61.507 E9.83802
G1 X54.698 Y58.498 E9.98278
G1 X54.859 Y57.819 E10.01636
G1 X53.301 Y57.819 E10.09131
G1 X53.173 Y58.133 E10.10763
G1 X53.023 Y58.643 E10.1332
G1 X52.916 Y59.173 E10.15922
G1 X52.864 Y59.72 E10.18565
G0 F1620 X52.863 Y59.733
G0 X52.863 Y60.271
G0 F2880 X52.565 Y60.271
G0 X52.949 Y61.946
G0 X53.87 Y62.48
G0 X53.87 Y61.96
G1 F1800 X53.247 Y61.336 E10.22807
G0 F2880 X53.112 Y60.579
G1 F1800 X54.493 Y61.96 E10.32204
G0 F2880 X54.479 Y61.324
G1 F1800 X53.083 Y59.928 E10.41702
G0 F2880 X53.12 Y59.343
G1 F1800 X54.479 Y60.701 E10.50945
G0 F2880 X54.478 Y60.078
G1 F1800 X53.212 Y58.812 E10.59559
G0 F2880 X53.345 Y58.323
G1 F1800 X54.476 Y59.454 E10.67254
G0 F2880 X54.476 Y58.831
G1 F1800 X53.683 Y58.039 E10.72646
G0 F2880 X54.305 Y58.039
G1 F1800 X54.519 Y58.252 E10.74099
G0 F2880 X54.953 Y58.409
;MESH:NONMESH
G0 F90 X54.953 Y58.409 Z0.482
G0 F2880 X55.703 Y57.785
;TIME_ELAPSED:37.126951
;LAYER:1
M140 S40
M106 S255
;TYPE:WALL-INNER
;MESH:fig-base.stl
G1 F2400 X56.172 Y57.484 E10.76331
G1 X57.354 Y57.1 E10.8131
G1 X52.816 Y57.1 E10.9949
G1 X52.498 Y57.89 E11.02902
G1 X52.324 Y58.471 E11.05332
G1 X52.204 Y59.077 E11.07806
G1 X52.145 Y59.693 E11.10286
G1 X52.145 Y60.309 E11.12753
G1 X52.204 Y60.923 E11.15224
G1 X52.324 Y61.529 E11.17699
G1 X52.498 Y62.11 E11.20129
G1 X52.816 Y62.9 E11.23541
G1 X57.35 Y62.899 E11.41705
G1 X56.172 Y62.517 E11.46666
G1 X55.703 Y62.215 E11.48901
G1 X55.469 Y61.82 E11.5074
G1 X55.413 Y61.469 E11.52164
G1 X55.413 Y58.531 E11.63934
G1 X55.437 Y58.381 E11.64543
G0 F2160 X55.469 Y58.18
G0 X55.703 Y57.785
G0 F3840 X59.48 Y57.09
G0 X62.131 Y59.881
G1 F2400 X62.131 Y60.119 E11.65496
G1 X62.073 Y60.373 E11.6654
G1 X61.927 Y60.648 E11.67787
G1 X60.289 Y62.9 E11.78943
G1 X65.439 Y62.899 E11.99575
G1 X66.967 Y61.792 E12.07134
G1 X67.28 Y61.492 E12.08871
G1 X67.518 Y61.165 E12.10491
G1 X67.696 Y60.796 E12.12133
G1 X67.822 Y60.201 E12.14569
G1 X67.841 Y59.999 E12.15382
G1 X67.804 Y59.598 E12.16995
G1 X67.694 Y59.201 E12.18646
G1 X67.518 Y58.835 E12.20273
G1 X67.281 Y58.507 E12.21894
G1 X66.967 Y58.208 E12.23631
G1 X65.439 Y57.101 E12.3119
G1 X60.289 Y57.1 E12.51822
G1 X61.873 Y59.278 E12.62611
G0 F2160 X61.927 Y59.352
G0 X62.073 Y59.627
G0 X62.131 Y59.881
G0 F3840 X60.133 Y56.92
G0 X60.133 Y56.66
G1 F2607.4 X59.307 Y56.625 E12.65659
G1 F2764.4 X59.05 Y56.636 E12.66554
G1 F2659.9 X58.462 Y56.64 E12.6868
G1 F2594.6 X57.874 Y56.645 E12.70859
G1 F2538.5 X57.286 Y56.65 E12.73086
G1 F2484.7 X56.698 Y56.655 E12.75361
G1 F2427.6 X56.11 Y56.66 E12.7769
G1 F2400 X52.575 Y56.66 E12.91852
G1 X52.334 Y57.118 E12.93925
G1 X52.082 Y57.744 E12.96629
G1 X51.896 Y58.365 E12.99226
G1 X51.768 Y59.013 E13.01872
G1 X51.705 Y59.671 E13.0452
G1 X51.705 Y60.33 E13.0716
G1 X51.768 Y60.987 E13.09804
G1 X51.896 Y61.635 E13.12451
G1 X52.082 Y62.256 E13.15048
G1 X52.334 Y62.882 E13.17751
G1 X52.575 Y63.34 E13.19824
G1 X56.112 Y63.339 E13.33994
G1 F2427.6 X56.7 Y63.344 E13.36323
G1 F2484.7 X57.288 Y63.349 E13.38599
G1 F2544.6 X57.876 Y63.354 E13.40821
G1 F2607.4 X58.464 Y63.359 E13.42989
G1 F2673.4 X59.052 Y63.365 E13.45104
G1 F2771.7 X59.307 Y63.375 E13.45989
G1 F2607.4 X60.133 Y63.34 E13.49038
G1 F2400 X65.582 Y63.339 E13.70867
G1 X67.249 Y62.131 E13.79115
G1 X67.613 Y61.783 E13.81132
G1 X67.897 Y61.392 E13.83068
G1 X68.11 Y60.951 E13.8503
G1 X68.238 Y60.482 E13.86978
G1 X68.26 Y60.241 E13.87947
G1 X68.283 Y59.999 E13.88921
G1 X68.238 Y59.518 E13.90857
G1 X68.108 Y59.045 E13.92822
G1 X67.897 Y58.608 E13.94766
G1 X67.613 Y58.217 E13.96702
G1 X67.249 Y57.869 E13.98719
G1 X65.582 Y56.661 E14.06967
G1 X60.796 Y56.66 E14.2614
G0 F2160 X60.133 Y56.66
G0 F3840 X60.133 Y56.92
G0 X55.922 Y57.755
G0 X56.027 Y58.083
G1 F2400 X56.308 Y57.903 E14.27477
G1 F2427.6 X56.868 Y57.726 E14.29803
G1 F2484.7 X57.429 Y57.549 E14.3208
G1 F2538.5 X57.989 Y57.371 E14.34305
G1 F2594.6 X58.55 Y57.194 E14.36485
G1 F2659.9 X59.11 Y57.016 E14.38609
G1 F2764.4 X59.307 Y56.997 E14.39298
G1 F2607.4 X59.841 Y57.233 E14.41451
G1 F2400 X61.653 Y59.723 E14.53788
G1 X61.694 Y60.072 E14.55195
G1 X61.571 Y60.389 E14.56558
G1 X59.841 Y62.767 E14.68339
G1 F2588.2 X59.416 Y62.997 E14.70134
G1 F2750 X59.11 Y62.983 E14.71205
G1 F2673.4 X58.55 Y62.806 E14.73317
G1 F2607.4 X57.989 Y62.629 E14.75486
G1 F2544.6 X57.428 Y62.452 E14.77709
G1 F2484.7 X56.867 Y62.275 E14.79985
G1 F2427.6 X56.307 Y62.098 E14.82312
G1 F2400 X56.027 Y61.917 E14.83647
G1 X55.887 Y61.68 E14.8475
G1 X55.853 Y61.469 E14.85606
G1 X55.853 Y58.531 E14.97376
G1 X55.885 Y58.333 E14.9818
G0 F2160 X55.887 Y58.32
G0 X56.027 Y58.083
G0 F3840 X56.351 Y58.381
;TYPE:WALL-OUTER
G1 F2025 X56.444 Y58.321 E14.98623
G1 X59.269 Y57.405 E15.10521
G1 X59.307 Y57.402 E15.10674
G1 X59.485 Y57.492 E15.11473
G1 X61.243 Y59.909 E15.23446
G1 X61.241 Y60.095 E15.24191
G1 X59.485 Y62.508 E15.36147
G1 X59.345 Y62.595 E15.36807
G1 X59.238 Y62.588 E15.37237
G1 X56.444 Y61.679 E15.49008
G1 X56.351 Y61.619 E15.49451
G1 X56.293 Y61.522 E15.49904
G1 X56.293 Y59.028 E15.59895
G0 F1822.5 X56.293 Y58.478
G0 X56.351 Y58.381
G0 F3840 X56.444 Y58.321
G0 X56.529 Y58.294
G0 X56.314 Y57.628
G0 X52.954 Y57.286
G0 X51.963 Y60.32
G0 X51.265 Y60.352
G1 F2025 X51.332 Y61.051 E15.62708
G1 X51.468 Y61.741 E15.65526
G1 X51.666 Y62.402 E15.6829
G1 X51.934 Y63.067 E15.71162
G1 X52.309 Y63.78 E15.7439
G1 X65.724 Y63.779 E16.28133
G1 X67.531 Y62.47 E16.37072
G1 X67.946 Y62.074 E16.3937
G1 X68.277 Y61.618 E16.41627
G1 X68.524 Y61.106 E16.43904
G1 X68.673 Y60.561 E16.46168
G1 X68.698 Y60.281 E16.47294
G1 X68.725 Y59.999 E16.48429
G1 X68.673 Y59.439 E16.50682
G1 X68.522 Y58.89 E16.52963
G1 X68.277 Y58.382 E16.55223
G1 X67.946 Y57.926 E16.5748
G1 X67.531 Y57.53 E16.59778
G1 X65.724 Y56.221 E16.68717
G1 X52.309 Y56.22 E17.2246
G1 X51.934 Y56.933 E17.25687
G1 X51.666 Y57.598 E17.2856
G1 X51.468 Y58.259 E17.31324
G1 X51.332 Y58.949 E17.34142
G1 X51.265 Y59.65 E17.36963
G1 X51.265 Y59.689 E17.37119
G0 F1822.5 X51.265 Y60.352
G0 F3840 X51.284 Y60.551
G0 X51.98 Y60.485
G0 X52.618 Y60.86
;TYPE:SKIN
G1 F1500 X52.731 Y61.427 E17.39435
G1 X52.892 Y61.97 E17.41704
G1 X53.1 Y62.482 E17.43918
G1 X55.379 Y62.48 E17.53048
G1 X55.093 Y61.997 E17.55297
G1 X54.997 Y61.499 E17.57329
G1 X54.997 Y58.501 E17.69339
G1 X55.093 Y58.003 E17.71371
G1 X55.366 Y57.541 E17.73521
G1 X55.389 Y57.519 E17.73648
G1 X53.099 Y57.518 E17.82823
G1 X52.893 Y58.028 E17.85026
G1 X52.731 Y58.573 E17.87304
G1 X52.618 Y59.14 E17.8962
G1 X52.563 Y59.714 E17.9193
G1 X52.563 Y60.199 E17.93873
G0 F1350 X52.563 Y60.287
G0 X52.618 Y60.86
G0 F3840 X52.325 Y60.917
G0 X52.383 Y59.104
G0 X52.685 Y57.908
G0 X53.646 Y57.22
G0 X53.646 Y57.737
G1 F1500 X53.023 Y58.359 E17.974
G0 F3840 X52.836 Y59.169
G1 F1500 X54.267 Y57.738 E18.05507
G0 F3840 X54.889 Y57.738
G1 F1500 X52.783 Y59.844 E18.17439
G0 F3840 X52.799 Y60.45
G1 F1500 X54.78 Y58.469 E18.28663
G0 F3840 X54.78 Y59.092
G1 F1500 X52.871 Y61.001 E18.39478
G0 F3840 X52.985 Y61.509
G1 F1500 X54.78 Y59.714 E18.49648
G0 F3840 X54.78 Y60.336
G1 F1500 X53.135 Y61.981 E18.58968
G0 F3840 X53.478 Y62.26
G1 F1500 X54.78 Y60.958 E18.66345
G0 F3840 X54.786 Y61.574
G1 F1500 X54.1 Y62.26 E18.70231
G0 F3840 X54.723 Y62.26
G1 F1500 X54.906 Y62.077 E18.71268
G0 F3840 X55.357 Y61.858
G0 X59.48 Y62.91
G0 X62.181 Y60.422
G0 X62.474 Y60.491
G1 F1500 X62.282 Y60.867 E18.72959
G1 X61.109 Y62.481 E18.80953
G1 X65.303 Y62.481 E18.97755
G1 X66.697 Y61.47 E19.04653
G1 X66.965 Y61.215 E19.06135
G1 X67.156 Y60.95 E19.07444
G1 X67.303 Y60.646 E19.08797
G1 X67.404 Y60.164 E19.1077
G1 X67.39 Y59.675 E19.1273
G1 X67.301 Y59.346 E19.14095
G1 X67.156 Y59.05 E19.15415
G1 X66.964 Y58.785 E19.16726
G1 X66.696 Y58.529 E19.18211
G1 X65.304 Y57.52 E19.25099
G1 X61.111 Y57.519 E19.41897
G1 X62.281 Y59.132 E19.4988
G1 X62.475 Y59.509 E19.51578
G1 X62.547 Y59.831 E19.529
G1 X62.548 Y59.836 E19.5292
G0 F1350 X62.549 Y60.145
G0 X62.474 Y60.491
G0 F3840 X62.184 Y60.424
G0 X61.204 Y58.152
G0 X61.622 Y57.849
G1 F1500 X61.733 Y57.739 E19.53547
G0 F3840 X61.883 Y58.211
G1 F1500 X62.355 Y57.739 E19.56221
G0 F3840 X62.977 Y57.739
G1 F1500 X62.145 Y58.571 E19.60934
G0 F3840 X62.406 Y58.933
G1 F1500 X63.6 Y57.739 E19.67699
G0 F3840 X64.222 Y57.739
G1 F1500 X62.627 Y59.334 E19.76736
G0 F3840 X62.765 Y59.818
G1 F1500 X64.844 Y57.739 E19.88515
G0 F3840 X65.368 Y57.837
G1 F1500 X62.694 Y60.512 E20.03667
G1 X62.617 Y60.589
G0 F3840 X62.187 Y60.413
G0 X60.686 Y62.698
G0 X62.811 Y62.78
G0 X62.811 Y62.261
G1 F1500 X66.45 Y58.622 E20.24284
G0 F3840 X66.781 Y58.914
G1 F1500 X63.433 Y62.261 E20.4325
G0 F3840 X64.056 Y62.261
G1 F1500 X67.018 Y59.299 E20.60031
G0 F3840 X67.176 Y59.763
G1 F1500 X64.678 Y62.261 E20.74184
G0 F3840 X65.484 Y62.077
G1 F1500 X67.133 Y60.428 E20.83527
G1 X67.21 Y60.351
G0 F3840 X67.658 Y60.475
G0 X67.625 Y59.63
G0 X67.073 Y58.6
